; generated by PrusaSlicer 2.6.0+win64 on 2023-07-03 at 12:00:53 UTC


;
;

;
;

;
;
; 

; external perimeters extrusion width = 0.40mm
; perimeters extrusion width = 0.40mm
; infill extrusion width = 0.40mm
; solid infill extrusion width = 0.40mm
; top infill extrusion width = 0.40mm
; first layer extrusion width = 0.45mm

M73 P0 R45
M201 X2500 Y2500 Z200 E2500 ; sets maximum accelerations, mm/sec^2
M203 X200 Y200 Z40 E100 ; sets maximum feedrates, mm / sec
M204 P2000 R1200 T2000 ; sets acceleration (P, T) and retract acceleration (R), mm/sec^2
M205 X8.00 Y8.00 Z2.00 E10.00 ; sets the jerk limits, mm/sec
M205 S0 T0 ; sets the minimum extruding and travel feed rate, mm/sec
;TYPE:Custom
M17 ; enable steppers
M862.3 P "MK4" ; printer model check
M862.1 P0.4 ; nozzle diameter check
M555 X81.518 Y96.0047 W86.9639 H13.9907

G90 ; use absolute coordinates
M83 ; extruder relative mode

M140 S60 ; set bed temp

M104 S170 ; set extruder temp for bed leveling
M109 R170 ; wait for temp


M84 E ; turn off E motor

G28 ; home all without mesh bed level

G1 X42 Y-4 Z5 F4800

M302 S160 ; lower cold extrusion limit to 160C


G1 E-2 F2400 ; retraction


M84 E ; turn off E motor

G29 P9 X10 Y-4 W32 H4

M106 S100

G0 Z40 F10000

M190 S60 ; wait for bed temp

M107

;
; MBL
;
M84 E ; turn off E motor
G29 P1 ; invalidate mbl & probe print area
G29 P1 X0 Y0 W50 H20 C ; probe near purge place
G29 P3.2 ; interpolate mbl probes
G29 P3.13 ; extrapolate mbl outside probe area
G29 A ; activate mbl

; prepare for purge
M104 S215
G0 X0 Y-4 Z15 F4800 ; move away and ready for the purge
M109 S215

G92 E0
M569 S0 E ; set spreadcycle mode for extruder

;
; Extrude purge line
;
G92 E0 ; reset extruder position
G1 E2 F2400 ; deretraction after the initial one before nozzle cleaning
G0 E7 X15 Z0.2 F500 ; purge
G0 X25 E4 F500 ; purge
G0 X35 E4 F650 ; purge
G0 X45 E4 F800 ; purge
G0 X48 Z0.05 F8000 ; wipe, move close to the bed
G0 X51 Z0.2 F8000 ; wipe, move quickly away from the bed

G92 E0
M221 S100 ; set flow to 100%
G21 ; set units to millimeters
G90 ; use absolute coordinates
M83 ; use relative distances for extrusion
M900 K0.05 ; Filament gcode



M142 S36 ; set heatbreak target temp
M107
;LAYER_CHANGE
;Z:0.2
;HEIGHT:0.2
;BEFORE_LAYER_CHANGE
G92 E0.0
;0.2


G1 E-.8 F2100
G1 Z.2 F720
;AFTER_LAYER_CHANGE
;0.2
; printing object rc_car_arm id:0 copy 0
G1 Z.4
G1 X159.732 Y106.907 F12000
G1 Z.2 F720
G1 E.8 F1500
M204 P600
;TYPE:Perimeter
;WIDTH:0.449999
G1 F1200
G1 X159.818 Y107.085 E.00669
G1 X159.346 Y106.918 E.01695
G1 X158.746 Y106.797 E.02072
G1 X158.217 Y106.761 E.01795
G1 X91.896 Y106.761 E2.24488
G1 X91.58 Y106.773 E.0107
G1 X90.959 Y106.851 E.02119
G1 X90.364 Y107.016 E.0209
G1 X89.801 Y107.265 E.02084
;WIDTH:0.490917
G1 X89.656 Y107.333 E.00597
;WIDTH:0.531835
G1 X89.511 Y107.4 E.00649
;WIDTH:0.572753
G1 X89.366 Y107.467 E.00704
;WIDTH:0.61367
G1 X89.221 Y107.534 E.00758
G1 X89.27 Y107.448 E.0047
;WIDTH:0.572535
G1 X89.319 Y107.362 E.00436
;WIDTH:0.531399
G1 X89.48 Y107.097 E.01259
;WIDTH:0.490699
G1 X89.642 Y106.833 E.01153
;WIDTH:0.449999
G1 X89.906 Y106.276 E.02086
G1 X90.058 Y105.769 E.01792
G1 X90.135 Y105.186 E.01991
G1 X90.118 Y104.624 E.01903
G1 X90.002 Y104.018 E.02088
G1 X89.786 Y103.44 E.02089
G1 X89.475 Y102.907 E.02089
;WIDTH:0.491463
G1 X89.358 Y102.736 E.00773
;WIDTH:0.532927
G1 X89.242 Y102.565 E.00842
;WIDTH:0.574391
G1 X89.125 Y102.393 E.00919
G1 X89.263 Y102.458 E.00674
;WIDTH:0.532927
G1 X89.4 Y102.524 E.0062
;WIDTH:0.491463
G1 X89.538 Y102.589 E.00569
;WIDTH:0.449999
G1 X90.078 Y102.876 E.0207
G1 X90.654 Y103.082 E.02071
G1 X91.254 Y103.203 E.02072
G1 X91.783 Y103.239 E.01795
G1 X158.217 Y103.239 E2.24871
G1 X158.725 Y103.205 E.01723
G1 X159.184 Y103.118 E.01581
G1 X159.815 Y102.916 E.02243
G1 X159.657 Y103.23 E.0119
G1 X159.449 Y103.787 E.02013
G1 X159.323 Y104.328 E.0188
G1 X159.265 Y104.925 E.0203
G1 X159.294 Y105.538 E.02077
G1 X159.4 Y106.044 E.0175
G1 X159.595 Y106.623 E.02068
G1 X159.706 Y106.853 E.00864
M204 P800
G1 X160.105 Y106.732 F12000
M204 P600
G1 F1200
G1 X159.973 Y106.472 E.00987
G1 X159.798 Y105.959 E.01835
G1 X159.694 Y105.435 E.01808
G1 X159.671 Y104.889 E.0185
G1 X159.708 Y104.527 E.01232
G1 X159.772 Y104.122 E.01388
G1 X159.926 Y103.62 E.01777
G1 X160.211 Y103.036 E.022
M73 P0 R44
G1 X160.553 Y102.561 E.01981
;WIDTH:0.446712
G1 X161.068 Y102.067 E.02396
;WIDTH:0.416138
G1 X161.508 Y101.754 E.01676
;WIDTH:0.416244
G1 X162.084 Y101.465 E.02
G1 X162.702 Y101.276 E.02006
G1 X163.343 Y101.195 E.02006
;WIDTH:0.416692
G1 X163.991 Y101.224 E.02016
G1 X164.621 Y101.361 E.02004
;WIDTH:0.416219
G1 X165.22 Y101.602 E.02004
G1 X165.769 Y101.942 E.02004
G1 X166.254 Y102.37 E.02008
G1 X166.659 Y102.873 E.02005
G1 X166.973 Y103.438 E.02006
G1 X167.187 Y104.048 E.02007
G1 X167.295 Y104.685 E.02005
G1 X167.294 Y105.331 E.02005
G1 X167.183 Y105.968 E.02007
G1 X166.967 Y106.576 E.02003
G1 X166.65 Y107.14 E.02008
G1 X166.243 Y107.642 E.02006
G1 X165.757 Y108.067 E.02004
G1 X165.206 Y108.405 E.02006
G1 X164.605 Y108.644 E.02008
G1 X163.973 Y108.779 E.02006
;WIDTH:0.416115
G1 X163.328 Y108.804 E.02003
G1 X162.687 Y108.72 E.02006
G1 X162.07 Y108.529 E.02004
G1 X161.495 Y108.238 E.02
;WIDTH:0.416272
G1 X160.897 Y107.788 E.02323
;WIDTH:0.449999
G1 X160.542 Y107.423 E.01723
G1 X160.223 Y106.966 E.01886
G1 X160.132 Y106.786 E.00683
M204 P800
G1 X160.442 Y106.539 F12000
M204 P600
;TYPE:External perimeter
G1 F1200
G1 X160.23 Y106.019 E.01901
G1 X160.105 Y105.452 E.01965
G1 X160.078 Y104.891 E.01901
G1 X160.112 Y104.579 E.01062
G1 X160.228 Y104.025 E.01916
G1 X160.384 Y103.596 E.01545
G1 X160.603 Y103.176 E.01603
G1 X160.917 Y102.75 E.01791
G1 X161.335 Y102.346 E.01968
G1 X161.815 Y102.018 E.01968
G1 X162.343 Y101.776 E.01966
G1 X162.904 Y101.627 E.01965
G1 X163.451 Y101.578 E.01859
G1 X163.961 Y101.614 E.01731
G1 X164.522 Y101.738 E.01945
G1 X165.059 Y101.958 E.01964
G1 X165.551 Y102.265 E.01963
G1 X165.984 Y102.651 E.01963
G1 X166.345 Y103.105 E.01963
G1 X166.625 Y103.614 E.01966
G1 X166.814 Y104.162 E.01962
G1 X166.908 Y104.734 E.01962
G1 X166.904 Y105.314 E.01963
G1 X166.802 Y105.885 E.01963
G1 X166.604 Y106.431 E.01966
G1 X166.318 Y106.935 E.01962
G1 X165.95 Y107.384 E.01965
G1 X165.512 Y107.764 E.01963
G1 X165.015 Y108.064 E.01965
G1 X164.475 Y108.276 E.01964
G1 X163.907 Y108.394 E.01964
G1 X163.328 Y108.414 E.01961
G1 X162.753 Y108.336 E.01964
G1 X162.199 Y108.162 E.01966
G1 X161.685 Y107.897 E.01957
G1 X161.143 Y107.485 E.02304
G1 X160.757 Y107.051 E.01966
G1 X160.471 Y106.591 E.01833
M204 P800
G1 X160.042 Y106.518 F12000
G1 E-.64 F2100
;WIPE_START
G1 F9600
G1 X160.23 Y106.019 E-.12899
G1 X160.198 Y105.873 E-.03101
;WIPE_END
G1 Z.4 F720
G1 X89.674 Y102.188 F12000
G1 Z.2 F720
G1 E.8 F1500
M204 P600
;TYPE:Perimeter
G1 F1200
G1 X89.735 Y102.232 E.00255
G1 X90.222 Y102.495 E.01873
G1 X90.742 Y102.685 E.01874
G1 X91.283 Y102.797 E.0187
G1 X91.783 Y102.832 E.01697
G1 X157.524 Y102.832 E2.22525
G1 X158.261 Y102.83 E.02495
G1 X158.804 Y102.785 E.01844
G1 X159.343 Y102.66 E.01873
G1 X159.858 Y102.458 E.01873
G1 X160.404 Y102.13 E.02156
;WIDTH:0.441377
G1 X160.936 Y101.71 E.02246
;WIDTH:0.406725
G1 X161.529 Y101.322 E.02144
G1 X162.179 Y101.042 E.02141
G1 X162.867 Y100.876 E.02141
;WIDTH:0.408594
G1 X163.534 Y100.827 E.02034
G1 X164.277 Y100.9 E.0227
;WIDTH:0.406757
G1 X164.959 Y101.091 E.02143
G1 X165.598 Y101.393 E.02138
G1 X166.178 Y101.8 E.02144
G1 X166.68 Y102.298 E.02139
G1 X167.091 Y102.875 E.02143
G1 X167.399 Y103.512 E.02141
G1 X167.589 Y104.16 E.02043
;WIDTH:0.416175
G1 X167.667 Y104.661 E.01574
G1 X167.672 Y104.896 E.0073
;WIDTH:0.40681
G1 X167.629 Y105.602 E.0214
G1 X167.468 Y106.292 E.02144
G1 X167.193 Y106.944 E.02141
G1 X166.811 Y107.54 E.02142
G1 X166.334 Y108.063 E.02142
G1 X165.776 Y108.498 E.02141
G1 X165.152 Y108.832 E.02142
G1 X164.48 Y109.056 E.02143
G1 X163.781 Y109.163 E.0214
G1 X163.073 Y109.151 E.02143
G1 X162.378 Y109.019 E.0214
G1 X161.715 Y108.772 E.02141
G1 X161.103 Y108.414 E.02145
;WIDTH:0.416272
G1 X160.668 Y108.083 E.01697
;WIDTH:0.449999
G1 X160.265 Y107.768 E.01731
G1 X159.778 Y107.505 E.01873
G1 X159.258 Y107.315 E.01874
G1 X158.717 Y107.203 E.0187
G1 X158.217 Y107.168 E.01697
G1 X91.739 Y107.17 E2.2502
G1 X91.196 Y107.215 E.01844
G1 X90.657 Y107.34 E.01873
G1 X90.142 Y107.542 E.01873
G1 X89.67 Y107.809 E.01836
G1 X88.686 Y108.545 E.04159
G1 X88.056 Y108.863 E.02389
G1 X87.381 Y109.071 E.02391
G1 X86.68 Y109.161 E.02392
G1 X85.974 Y109.132 E.02392
M73 P1 R44
G1 X85.283 Y108.983 E.02393
G1 X84.627 Y108.72 E.02392
G1 X84.025 Y108.35 E.02392
G1 X83.494 Y107.883 E.02394
G1 X83.05 Y107.333 E.02393
G1 X82.705 Y106.716 E.02393
G1 X82.47 Y106.05 E.02391
G1 X82.35 Y105.353 E.02394
G1 X82.35 Y104.647 E.0239
G1 X82.47 Y103.95 E.02394
G1 X82.705 Y103.284 E.02391
G1 X83.05 Y102.667 E.02393
G1 X83.494 Y102.117 E.02393
G1 X84.025 Y101.65 E.02394
G1 X84.627 Y101.28 E.02392
G1 X85.279 Y101.018 E.02378
G1 X85.974 Y100.868 E.02407
G1 X86.68 Y100.839 E.02392
G1 X87.381 Y100.929 E.02392
G1 X88.056 Y101.137 E.02391
G1 X88.686 Y101.455 E.02389
G1 X89.625 Y102.152 E.03958
M204 P800
G1 X89.846 Y101.815 F12000
M204 P600
;TYPE:External perimeter
G1 F1200
G1 X89.909 Y101.861 E.00264
G1 X90.339 Y102.102 E.01669
G1 X90.801 Y102.279 E.01675
G1 X91.284 Y102.387 E.01675
G1 X91.783 Y102.425 E.01694
G1 X157.524 Y102.425 E2.22525
G1 X158.368 Y102.415 E.02857
G1 X159.009 Y102.323 E.02192
G1 X159.634 Y102.114 E.02231
G1 X160.091 Y101.861 E.01768
G1 X161.099 Y101.108 E.04259
G1 X161.791 Y100.758 E.02625
G1 X162.533 Y100.53 E.02627
G1 X163.303 Y100.431 E.02628
G1 X164.078 Y100.463 E.02626
G1 X164.837 Y100.626 E.02628
G1 X165.557 Y100.915 E.02626
G1 X166.218 Y101.322 E.02628
G1 X166.801 Y101.834 E.02626
G1 X167.288 Y102.438 E.02626
G1 X167.667 Y103.115 E.02626
G1 X167.909 Y103.801 E.02462
G1 X167.974 Y104.127 E.01125
G1 X168.057 Y104.661 E.01829
G1 X168.057 Y105.388 E.02461
G1 X167.926 Y106.153 E.02627
G1 X167.667 Y106.885 E.02628
G1 X167.288 Y107.562 E.02626
G1 X166.801 Y108.166 E.02626
G1 X166.218 Y108.678 E.02626
G1 X165.557 Y109.085 E.02628
G1 X164.837 Y109.374 E.02626
G1 X164.078 Y109.537 E.02628
G1 X163.303 Y109.569 E.02626
G1 X162.533 Y109.47 E.02628
G1 X161.791 Y109.242 E.02627
G1 X161.099 Y108.892 E.02625
G1 X160.328 Y108.316 E.03258
G1 X159.817 Y107.985 E.02061
G1 X159.246 Y107.739 E.02105
G1 X158.716 Y107.613 E.01844
G1 X158.217 Y107.575 E.01694
G1 X91.896 Y107.575 E2.24488
G1 X91.313 Y107.609 E.01977
G1 X90.829 Y107.713 E.01676
G1 X90.366 Y107.886 E.01673
G1 X89.91 Y108.137 E.01762
G1 X88.901 Y108.892 E.04266
G1 X88.209 Y109.242 E.02625
G1 X87.467 Y109.47 E.02627
G1 X86.697 Y109.569 E.02628
G1 X85.922 Y109.537 E.02626
G1 X85.163 Y109.374 E.02628
G1 X84.443 Y109.085 E.02626
G1 X83.782 Y108.678 E.02628
G1 X83.199 Y108.166 E.02626
G1 X82.712 Y107.562 E.02626
G1 X82.333 Y106.885 E.02626
G1 X82.074 Y106.153 E.02628
G1 X81.943 Y105.388 E.02627
G1 X81.943 Y104.612 E.02627
G1 X82.074 Y103.847 E.02627
G1 X82.333 Y103.115 E.02628
G1 X82.712 Y102.438 E.02626
G1 X83.199 Y101.834 E.02626
G1 X83.782 Y101.322 E.02626
G1 X84.443 Y100.915 E.02628
G1 X85.159 Y100.628 E.02611
G1 X85.922 Y100.463 E.02642
G1 X86.697 Y100.431 E.02626
G1 X87.467 Y100.53 E.02628
G1 X88.209 Y100.758 E.02627
G1 X88.901 Y101.108 E.02625
G1 X89.798 Y101.779 E.03792
M204 P800
G1 X89.839 Y101.892 F12000
G1 E-.64 F2100
;WIPE_START
G1 F9600
G1 X89.909 Y101.861 E-.02868
G1 X90.339 Y102.102 E-.10244
G1 X90.469 Y102.152 E-.02888
;WIPE_END
G1 Z.4 F720
G1 X83.635 Y103.519 F12000
G1 Z.2 F720
G1 E.8 F1500
M204 P600
;TYPE:Perimeter
G1 F1200
G1 X83.872 Y103.121 E.01568
G1 X84.227 Y102.703 E.01856
G1 X84.648 Y102.352 E.01855
G1 X85.122 Y102.077 E.01855
G1 X85.636 Y101.887 E.01855
G1 X86.4 Y101.774 E.02614
G1 X87.224 Y101.855 E.02803
G1 X87.725 Y102.014 E.01779
G1 X88.21 Y102.263 E.01845
G1 X88.698 Y102.632 E.02071
G1 X89.067 Y103.037 E.01855
G1 X89.361 Y103.499 E.01854
G1 X89.574 Y104.004 E.01855
G1 X89.698 Y104.538 E.01856
G1 X89.73 Y105.085 E.01855
G1 X89.669 Y105.63 E.01856
G1 X89.517 Y106.157 E.01857
G1 X89.278 Y106.65 E.01854
G1 X89.045 Y106.98 E.01367
G1 X88.886 Y107.178 E.0086
G1 X88.488 Y107.546 E.01835
G1 X88.054 Y107.834 E.01763
G1 X87.553 Y108.056 E.01855
G1 X87.021 Y108.19 E.01857
G1 X86.474 Y108.232 E.01857
G1 X85.928 Y108.182 E.01856
G1 X85.439 Y108.049 E.01715
G1 X84.97 Y107.846 E.0173
G1 X84.511 Y107.546 E.01856
G1 X84.109 Y107.173 E.01856
G1 X83.776 Y106.738 E.01854
G1 X83.522 Y106.253 E.01853
G1 X83.353 Y105.731 E.01857
G1 X83.274 Y105.189 E.01854
G1 X83.289 Y104.641 E.01856
G1 X83.408 Y104.069 E.01978
G1 X83.605 Y103.57 E.01816
M204 P800
G1 X83.867 Y104.001 F12000
M204 P600
;TYPE:External perimeter
G1 F1200
G1 X83.985 Y103.713 E.01053
G1 X84.239 Y103.306 E.01624
G1 X84.558 Y102.948 E.01623
G1 X84.932 Y102.65 E.01619
G1 X85.352 Y102.419 E.01622
G1 X85.813 Y102.261 E.0165
G1 X86.452 Y102.177 E.02182
G1 X87.175 Y102.259 E.02463
G1 X87.672 Y102.429 E.01778
G1 X88.096 Y102.669 E.01649
G1 X88.467 Y102.972 E.01621
G1 X88.782 Y103.334 E.01624
G1 X89.03 Y103.744 E.01622
G1 X89.206 Y104.189 E.0162
G1 X89.311 Y104.81 E.02132
G1 X89.322 Y105.137 E.01107
G1 X89.258 Y105.612 E.01622
G1 X89.115 Y106.069 E.01621
G1 X88.897 Y106.496 E.01623
G1 X88.717 Y106.738 E.01021
G1 X88.262 Y107.205 E.02207
G1 X87.863 Y107.475 E.01631
G1 X87.425 Y107.669 E.01621
G1 X86.96 Y107.787 E.01624
G1 X86.483 Y107.825 E.0162
G1 X86.003 Y107.781 E.01632
G1 X85.515 Y107.646 E.01714
G1 X85.107 Y107.458 E.01521
G1 X84.712 Y107.187 E.01621
G1 X84.368 Y106.853 E.01623
G1 X84.085 Y106.467 E.0162
G1 X83.872 Y106.037 E.01624
G1 X83.735 Y105.578 E.01621
G1 X83.677 Y105.103 E.0162
G1 X83.7 Y104.622 E.0163
G1 X83.815 Y104.129 E.01714
G1 X83.845 Y104.056 E.00267
M204 P800
G1 X83.667 Y103.763 F12000
G1 E-.64 F2100
;WIPE_START
G1 F9600
G1 X83.985 Y103.713 E-.07699
G1 X84.196 Y103.374 E-.08301
;WIPE_END
G1 Z.4 F720
G1 X89.221 Y107.534 F12000
G1 Z.2 F720
G1 E.8 F1500
M204 P600
;TYPE:Perimeter
;WIDTH:0.61367
G1 F1200
G1 X88.992 Y107.724 E.01412
;WIDTH:0.583949
G1 X88.763 Y107.914 E.01339
;WIDTH:0.555116
G1 X88.262 Y108.244 E.02555
G1 X87.688 Y108.496 E.0267
G1 X87.08 Y108.646 E.02667
G1 X86.455 Y108.692 E.02669
G1 X85.832 Y108.631 E.02666
;WIDTH:0.56368
G1 X85.317 Y108.497 E.02304
;WIDTH:0.572372
G1 X84.838 Y108.3 E.0228
G1 X84.304 Y107.972 E.02759
G1 X83.833 Y107.558 E.02761
G1 X83.439 Y107.07 E.02761
G1 X83.133 Y106.523 E.02759
G1 X82.924 Y105.931 E.02764
G1 X82.818 Y105.313 E.0276
G1 X82.818 Y104.687 E.02756
;WIDTH:0.576242
G1 X82.926 Y104.069 E.02782
G1 X83.133 Y103.477 E.02781
;WIDTH:0.572272
G1 X83.439 Y102.93 E.02759
G1 X83.833 Y102.442 E.02761
G1 X84.304 Y102.028 E.0276
G1 X84.838 Y101.7 E.02758
G1 X85.417 Y101.468 E.02745
;WIDTH:0.586714
G1 X86.034 Y101.342 E.02847
G1 X86.609 Y101.309 E.02604
;WIDTH:0.573934
G1 X87.281 Y101.389 E.02988
G1 X87.881 Y101.573 E.02771
;WIDTH:0.572158
G1 X88.438 Y101.854 E.02745
;WIDTH:0.572046
G1 X88.992 Y102.268 E.03043
;WIDTH:0.586804
G1 X89.105 Y102.363 E.00668
M204 P800
G1 E-.64 F2100
;WIPE_START
G1 F9600
G1 X88.992 Y102.268 E-.03068
G1 X88.494 Y101.895 E-.12932
;WIPE_END
G1 Z.4 F720
G1 X158.743 Y103.387 F12000
G1 Z.2 F720
G1 E.8 F1500
M204 P600
;TYPE:Solid infill
;WIDTH:0.452889
G1 F1200
G1 X159.084 Y103.728 E.01644
G1 X159.025 Y103.922 E.00691
G1 X158.971 Y104.195 E.00949
G1 X158.372 Y103.596 E.02888
G1 X158.222 Y103.606 E.00512
G1 X157.802 Y103.606 E.01432
G1 X158.906 Y104.71 E.05322
G1 X158.898 Y104.915 E.00699
G1 X158.914 Y105.297 E.01303
G1 X157.222 Y103.606 E.08155
G1 X156.642 Y103.606 E.01977
G1 X159.011 Y105.975 E.11421
G1 X159.09 Y106.333 E.0125
G1 X159.156 Y106.504 E.00625
G1 X158.906 Y106.449 E.00873
G1 X156.062 Y103.606 E.13708
G1 X155.483 Y103.606 E.01974
G1 X158.275 Y106.398 E.1346
G1 X157.692 Y106.394 E.01987
G1 X154.903 Y103.606 E.13443
G1 X154.323 Y103.606 E.01977
G1 X157.112 Y106.394 E.13443
G1 X156.532 Y106.394 E.01977
G1 X153.743 Y103.606 E.13443
G1 X153.163 Y103.606 E.01977
G1 X155.952 Y106.394 E.13443
G1 X155.373 Y106.394 E.01974
G1 X152.584 Y103.606 E.13443
G1 X152.004 Y103.606 E.01977
G1 X154.793 Y106.394 E.13443
