; generated by PrusaSlicer 2.6.0+win64 on 2023-08-20 at 23:15:35 UTC


;
;

;
;

;
;
; 

; external perimeters extrusion width = 0.45mm
; perimeters extrusion width = 0.45mm
; infill extrusion width = 0.45mm
; solid infill extrusion width = 0.45mm
; top infill extrusion width = 0.40mm
; first layer extrusion width = 0.50mm

M73 P0 R93
M201 X2500 Y2500 Z200 E2500 ; sets maximum accelerations, mm/sec^2
M203 X200 Y200 Z40 E100 ; sets maximum feedrates, mm / sec
M204 P2000 R1200 T2000 ; sets acceleration (P, T) and retract acceleration (R), mm/sec^2
M205 X8.00 Y8.00 Z2.00 E10.00 ; sets the jerk limits, mm/sec
M205 S0 T0 ; sets the minimum extruding and travel feed rate, mm/sec
;TYPE:Custom
M17 ; enable steppers
M862.3 P "MK4" ; printer model check
M862.1 P0.4 ; nozzle diameter check
M555 X19.8634 Y11 W210.273 H184

G90 ; use absolute coordinates
M83 ; extruder relative mode

M140 S60 ; set bed temp

M104 S170 ; set extruder temp for bed leveling
M109 R170 ; wait for temp


M84 E ; turn off E motor

G28 ; home all without mesh bed level

G1 X42 Y-4 Z5 F4800

M302 S160 ; lower cold extrusion limit to 160C


G1 E-2 F2400 ; retraction


M84 E ; turn off E motor

G29 P9 X10 Y-4 W32 H4

M106 S100

G0 Z40 F10000

M190 S60 ; wait for bed temp

M107

;
; MBL
;
M84 E ; turn off E motor
G29 P1 ; invalidate mbl & probe print area
G29 P1 X0 Y0 W50 H20 C ; probe near purge place
G29 P3.2 ; interpolate mbl probes
G29 P3.13 ; extrapolate mbl outside probe area
G29 A ; activate mbl

; prepare for purge
M104 S215
G0 X0 Y-4 Z15 F4800 ; move away and ready for the purge
M109 S215

G92 E0
M569 S0 E ; set spreadcycle mode for extruder

;
; Extrude purge line
;
G92 E0 ; reset extruder position
G1 E2 F2400 ; deretraction after the initial one before nozzle cleaning
G0 E7 X15 Z0.2 F500 ; purge
G0 X25 E4 F500 ; purge
G0 X35 E4 F650 ; purge
G0 X45 E4 F800 ; purge
G0 X48 Z0.05 F8000 ; wipe, move close to the bed
G0 X51 Z0.2 F8000 ; wipe, move quickly away from the bed

G92 E0
M221 S100 ; set flow to 100%
G21 ; set units to millimeters
G90 ; use absolute coordinates
M83 ; use relative distances for extrusion
M900 K0.05 ; Filament gcode



M142 S36 ; set heatbreak target temp
M107
;LAYER_CHANGE
;Z:0.2
;HEIGHT:0.2
;BEFORE_LAYER_CHANGE
G92 E0.0
;0.2


G1 E-.8 F2100
G1 Z.2 F720
;AFTER_LAYER_CHANGE
;0.2
; printing object LineFollower2_3D.stl id:0 copy 0
G1 Z.4
G1 X69.251 Y145.272 F12000
G1 Z.2 F720
G1 E.8 F1500
M204 P600
;TYPE:Perimeter
;WIDTH:0.499999
G1 F1200
G1 X69.262 Y145.43 E.00602
G1 X69.42 Y145.695 E.01173
G1 X69.689 Y145.869 E.01218
G1 X69.915 Y145.907 E.00871
G1 X205.144 Y145.907 E5.13955
G1 X205.952 Y145.85 E.03079
G1 X206.709 Y145.693 E.02938
G1 X207.438 Y145.439 E.02934
G1 X208.189 Y145.052 E.03211
G1 X208.768 Y144.658 E.02662
G1 X209.345 Y144.145 E.02934
G1 X209.85 Y143.56 E.02937
G1 X210.274 Y142.914 E.02937
G1 X210.61 Y142.219 E.02934
G1 X210.853 Y141.485 E.02939
;WIDTH:0.533368
G1 X210.915 Y141.265 E.00932
;WIDTH:0.566736
G1 X210.977 Y141.046 E.00991
;WIDTH:0.600104
G1 X211.039 Y140.826 E.01059
G1 X211.057 Y141.054 E.0106
;WIDTH:0.566736
G1 X211.075 Y141.281 E.00992
;WIDTH:0.533368
G1 X211.093 Y141.509 E.00933
;WIDTH:0.499999
G1 X211.093 Y145.221 E.14108
G1 X211.141 Y145.474 E.00979
G1 X211.355 Y145.761 E.01361
G1 X211.548 Y145.867 E.00837
G1 X211.779 Y145.907 E.00891
G1 X228.181 Y145.907 E.62338
;WIDTH:0.514885
G1 X228.625 Y145.785 E.01807
;WIDTH:0.558339
G1 X228.712 Y145.718 E.00471
;WIDTH:0.601793
G1 X228.799 Y145.652 E.00507
;WIDTH:0.645246
G1 X228.886 Y145.586 E.00547
G1 X228.867 Y145.709 E.00623
;WIDTH:0.601793
G1 X228.848 Y145.833 E.00583
;WIDTH:0.558339
G1 X228.828 Y145.956 E.00534
;WIDTH:0.514885
G1 X228.548 Y146.541 E.02545
;WIDTH:0.499999
G1 X228.175 Y147.1 E.02554
G1 X227.736 Y147.601 E.02532
G1 X227.238 Y148.037 E.02516
G1 X226.682 Y148.409 E.02543
G1 X226.085 Y148.703 E.02529
G1 X225.454 Y148.918 E.02534
G1 X224.801 Y149.047 E.0253
G1 X224.107 Y149.093 E.02643
G1 X69.915 Y149.093 E5.86026
G1 X69.689 Y149.131 E.00871
G1 X69.42 Y149.305 E.01218
G1 X69.297 Y149.483 E.00822
G1 X69.23 Y149.779 E.01153
G1 X69.23 Y154.757 E.1892
G1 X63.524 Y164.643 E.43382
G1 X63.456 Y164.94 E.01158
G1 X63.456 Y190.228 E.9611
G1 X63.273 Y189.882 E.01488
G1 X62.734 Y189.28 E.03071
G1 X62.049 Y188.851 E.03072
G1 X61.461 Y188.66 E.0235
G1 X60.834 Y188.599 E.02394
G1 X60.069 Y188.708 E.02937
G1 X59.33 Y189.035 E.03071
G1 X58.71 Y189.553 E.03071
G1 X58.257 Y190.222 E.03071
G1 X58.006 Y190.991 E.03074
G1 X57.977 Y191.802 E.03084
G1 X58.17 Y192.582 E.03054
G1 X58.573 Y193.282 E.0307
G1 X59.002 Y193.727 E.02349
G1 X59.582 Y194.093 E.02607
G1 X34.164 Y194.093 E.96604
G1 X34.221 Y194.066 E.0024
G1 X34.875 Y193.592 E.0307
G1 X35.374 Y192.956 E.03072
G1 X35.678 Y192.208 E.03069
G1 X35.764 Y191.405 E.03069
G1 X35.625 Y190.609 E.03071
G1 X35.273 Y189.882 E.0307
G1 X34.733 Y189.28 E.03074
G1 X34.049 Y188.851 E.03069
G1 X33.461 Y188.66 E.0235
G1 X32.834 Y188.599 E.02394
G1 X32.062 Y188.711 E.02965
G1 X31.301 Y189.055 E.03174
G1 X30.71 Y189.554 E.0294
G1 X30.27 Y190.197 E.02961
G1 X30.27 Y164.941 E.95989
G1 X30.235 Y164.693 E.00952
G1 X30.082 Y164.439 E.01127
G1 X20.77 Y154.638 E.51382
G1 X20.77 Y55.362 E3.77311
G1 X29.945 Y45.704 E.50629
G1 X30.203 Y45.385 E.01559
G1 X30.27 Y45.088 E.01157
G1 X30.27 Y19.77 E.96224
G1 X30.573 Y20.282 E.02261
G1 X31.153 Y20.845 E.03072
G1 X31.865 Y21.225 E.03067
G1 X32.655 Y21.395 E.03071
G1 X33.461 Y21.34 E.0307
G1 X34.221 Y21.066 E.0307
G1 X34.875 Y20.592 E.0307
G1 X35.374 Y19.956 E.03072
G1 X35.678 Y19.208 E.03069
G1 X35.764 Y18.405 E.03069
G1 X35.626 Y17.609 E.0307
G1 X35.273 Y16.882 E.03072
G1 X34.734 Y16.28 E.03071
G1 X34.165 Y15.907 E.02586
G1 X59.577 Y15.907 E.96582
G1 X59.331 Y16.035 E.01054
G1 X58.711 Y16.553 E.03071
G1 X58.257 Y17.222 E.03073
G1 X58.006 Y17.991 E.03074
G1 X57.977 Y18.802 E.03084
G1 X58.17 Y19.582 E.03054
G1 X58.573 Y20.282 E.0307
G1 X59.153 Y20.845 E.03072
G1 X59.865 Y21.225 E.03067
G1 X60.655 Y21.395 E.03071
G1 X61.461 Y21.34 E.0307
G1 X62.221 Y21.066 E.0307
G1 X62.876 Y20.592 E.03073
G1 X63.273 Y20.118 E.0235
G1 X63.456 Y19.773 E.01484
G1 X63.459 Y45.12 E.96335
G1 X63.548 Y45.402 E.01124
G1 X69.23 Y55.243 E.43189
G1 X69.23 Y60.221 E.1892
G1 X69.262 Y60.43 E.00804
G1 X69.42 Y60.695 E.01173
G1 X69.689 Y60.869 E.01218
G1 X69.915 Y60.907 E.00871
G1 X224.107 Y60.907 E5.86026
G1 X224.801 Y60.953 E.02643
M73 P0 R92
G1 X225.454 Y61.082 E.0253
G1 X226.085 Y61.297 E.02534
G1 X226.682 Y61.591 E.02529
G1 X227.238 Y61.963 E.02543
G1 X227.736 Y62.4 E.02518
G1 X228.176 Y62.901 E.02534
G1 X228.547 Y63.457 E.0254
G1 X228.836 Y64.042 E.0248
;WIDTH:0.544351
G1 X228.868 Y64.207 E.00701
;WIDTH:0.588703
G1 X228.901 Y64.373 E.00768
;WIDTH:0.633054
G1 X228.934 Y64.538 E.00826
G1 X228.83 Y64.433 E.00725
;WIDTH:0.588703
G1 X228.726 Y64.328 E.00671
;WIDTH:0.544351
G1 X228.622 Y64.222 E.00619
;WIDTH:0.499999
G1 X228.221 Y64.093 E.01601
G1 X211.779 Y64.093 E.6249
G1 X211.66 Y64.103 E.00454
G1 X211.355 Y64.239 E.01269
G1 X211.141 Y64.526 E.01361
G1 X211.093 Y64.779 E.00979
G1 X211.093 Y68.491 E.14108
;WIDTH:0.535871
G1 X211.075 Y68.719 E.00937
;WIDTH:0.571743
G1 X211.057 Y68.946 E.01001
;WIDTH:0.607614
G1 X211.039 Y69.174 E.01074
G1 X210.969 Y68.925 E.01214
;WIDTH:0.571743
G1 X210.9 Y68.677 E.01132
;WIDTH:0.535871
G1 X210.83 Y68.428 E.0106
;WIDTH:0.499999
G1 X210.576 Y67.698 E.02938
G1 X210.229 Y67.008 E.02935
G1 X209.795 Y66.369 E.02936
G1 X209.136 Y65.665 E.03665
G1 X208.696 Y65.287 E.02205
G1 X208.051 Y64.863 E.02934
G1 X207.355 Y64.526 E.02939
G1 X206.622 Y64.284 E.02934
G1 X205.863 Y64.139 E.02937
G1 X205.144 Y64.093 E.02738
G1 X69.915 Y64.093 E5.13955
G1 X69.689 Y64.131 E.00871
G1 X69.42 Y64.305 E.01218
G1 X69.297 Y64.483 E.00822
G1 X69.23 Y64.779 E.01153
G1 X69.23 Y144.964 E3.04753
G1 X69.247 Y145.212 E.00945
M204 P1000
G1 E-.64 F2100
;WIPE_START
G1 F9600
G1 X69.262 Y145.43 E-.04541
M73 P1 R92
G1 X69.42 Y145.695 E-.06412
G1 X69.624 Y145.827 E-.05047
;WIPE_END
G1 Z.4 F720
G1 X228.873 Y71.656 F12000
G1 Z.2 F720
G1 E.8 F1500
M204 P600
;WIDTH:0.432692
G1 F1200
G1 X228.873 Y66.035 E.18217
G1 X228.862 Y65.358 E.02194
;WIDTH:0.458698
G1 X228.889 Y65.242 E.00412
;WIDTH:0.506958
G1 X228.916 Y65.126 E.0046
;WIDTH:0.555218
G1 X228.942 Y65.01 E.00506
;WIDTH:0.603478
G1 X228.969 Y64.894 E.00555
;WIDTH:0.651737
G1 X228.996 Y64.777 E.00608
G1 X229.043 Y64.891 E.00624
;WIDTH:0.603478
G1 X229.089 Y65.005 E.00573
;WIDTH:0.555218
G1 X229.136 Y65.119 E.00525
;WIDTH:0.506958
G1 X229.183 Y65.233 E.00476
;WIDTH:0.458698
G1 X229.229 Y65.346 E.00422
;WIDTH:0.432692
G1 X229.263 Y66.035 E.02236
;WIDTH:0.432691
G1 X229.263 Y143.966 E2.52571
G1 X229.226 Y144.682 E.02324
;WIDTH:0.452768
G1 X229.187 Y144.772 E.00334
;WIDTH:0.495102
G1 X229.147 Y144.862 E.0037
;WIDTH:0.537436
G1 X229.108 Y144.951 E.004
;WIDTH:0.57977
G1 X229.068 Y145.041 E.0044
;WIDTH:0.622104
G1 X229.029 Y145.131 E.00472
;WIDTH:0.664438
G1 X228.989 Y145.221 E.00509
G1 X228.968 Y145.125 E.00508
;WIDTH:0.622104
G1 X228.947 Y145.03 E.00469
;WIDTH:0.57977
G1 X228.926 Y144.934 E.00439
;WIDTH:0.537436
G1 X228.905 Y144.838 E.00404
;WIDTH:0.495102
G1 X228.883 Y144.742 E.0037
;WIDTH:0.452768
G1 X228.862 Y144.646 E.00335
;WIDTH:0.432692
G1 X228.873 Y143.966 E.02204
G1 X228.873 Y71.716 E2.3416
M204 P1000
G1 E-.64 F2100
;WIPE_START
G1 F9600
G1 X228.873 Y70.946 E-.16
;WIPE_END
G1 Z.4 F720
G1 X69.687 Y145.221 F12000
G1 Z.2 F720
G1 E.8 F1500
M204 P600
;TYPE:External perimeter
;WIDTH:0.499999
G1 F1200
G1 X69.687 Y64.779 E3.0573
G1 X69.691 Y64.736 E.00164
G1 X69.784 Y64.591 E.00655
G1 X69.915 Y64.55 E.00522
G1 X205.144 Y64.55 E5.13955
G1 X205.833 Y64.595 E.02624
G1 X206.533 Y64.732 E.02711
G1 X207.208 Y64.959 E.02707
G1 X207.849 Y65.273 E.02713
G1 X208.443 Y65.667 E.02709
G1 X208.835 Y66.009 E.01977
G1 X209.451 Y66.67 E.03434
G1 X209.849 Y67.262 E.02711
G1 X210.166 Y67.901 E.02711
G1 X210.397 Y68.575 E.02708
G1 X210.538 Y69.274 E.0271
G1 X210.587 Y69.993 E.02739
G1 X210.587 Y82.985 E.49378
G1 X210.613 Y83.24 E.00974
G1 X210.736 Y83.642 E.01598
G1 X210.942 Y83.975 E.01488
G1 X211.22 Y84.242 E.01465
G1 X211.548 Y84.429 E.01435
G1 X211.55 Y64.779 E.74682
G1 X211.592 Y64.647 E.00526
G1 X211.739 Y64.553 E.00663
G1 X211.779 Y64.55 E.00152
G1 X228.221 Y64.55 E.6249
G1 X228.355 Y64.593 E.00535
G1 X228.45 Y64.779 E.00794
G1 X228.45 Y145.221 E3.0573
G1 X228.422 Y145.331 E.00431
G1 X228.355 Y145.407 E.00385
G1 X228.181 Y145.45 E.00681
G1 X211.779 Y145.45 E.62338
G1 X211.637 Y145.401 E.00571
G1 X211.557 Y145.277 E.00561
G1 X211.55 Y144.119 E.04401
G1 X211.55 Y126.582 E.66652
G1 X211.35 Y126.67 E.0083
G1 X211.019 Y126.937 E.01616
G1 X210.776 Y127.275 E.01582
G1 X210.634 Y127.66 E.0156
G1 X210.587 Y128.053 E.01504
G1 X210.587 Y140.007 E.45433
G1 X210.542 Y140.697 E.02628
G1 X210.405 Y141.396 E.02707
G1 X210.177 Y142.072 E.02711
G1 X209.864 Y142.712 E.02708
G1 X209.469 Y143.306 E.02711
G1 X209.001 Y143.843 E.02707
G1 X208.466 Y144.315 E.02712
G1 X207.935 Y144.672 E.02432
G1 X207.236 Y145.029 E.02983
G1 X206.562 Y145.26 E.02708
G1 X205.863 Y145.401 E.0271
G1 X205.144 Y145.45 E.02739
G1 X69.915 Y145.45 E5.13955
G1 X69.75 Y145.379 E.00683
G1 X69.709 Y145.277 E.00418
M204 P1000
G1 X69.3 Y145.118 F12000
G1 E-.64 F2100
;WIPE_START
G1 F9600
G1 X69.709 Y144.507 E-.16
;WIPE_END
G1 Z.4 F720
G1 X63.496 Y17.414 F12000
G1 Z.2 F720
G1 E.8 F1500
M204 P600
;TYPE:Perimeter
;WIDTH:0.420403
G1 F1200
G1 X63.349 Y17.085 E.01131
G1 X63.19 Y16.844 E.00906
G1 X62.709 Y16.317 E.0224
;WIDTH:0.411262
G1 X62.262 Y16.016 E.01651
G1 X61.943 Y15.863 E.01084
G1 X62.635 Y15.905 E.02123
M73 P1 R91
G1 X62.879 Y16 E.00802
;WIDTH:0.417378
G1 X63.077 Y16.138 E.00751
;WIDTH:0.420403
G1 X63.339 Y16.437 E.01248
G1 X63.465 Y16.81 E.01236
G1 X63.493 Y17.355 E.01713
M204 P1000
G1 X63.204 Y17.715 F12000
M204 P600
;TYPE:External perimeter
;WIDTH:0.568744
G1 F1200
G1 X63.24 Y17.781 E.00329
;WIDTH:0.616771
G1 X63.284 Y17.848 E.00382
G1 X63.348 Y18.463 E.0295
G1 X63.284 Y19.152 E.03302
G1 X63.175 Y19.358 E.01112
;WIDTH:0.577847
G1 X63.066 Y19.564 E.01037
;WIDTH:0.538923
G1 X62.957 Y19.77 E.00961
;WIDTH:0.499999
G1 X62.526 Y20.298 E.0259
G1 X61.965 Y20.687 E.02595
G1 X61.32 Y20.906 E.02589
G1 X60.639 Y20.938 E.02591
G1 X59.976 Y20.782 E.02589
G1 X59.381 Y20.449 E.02591
G1 X58.902 Y19.965 E.02588
G1 X58.574 Y19.367 E.02592
G1 X58.424 Y18.706 E.02576
G1 X58.462 Y18.022 E.02604
G1 X58.687 Y17.379 E.02589
G1 X59.08 Y16.822 E.02591
G1 X59.612 Y16.396 E.0259
;WIDTH:0.537728
G1 X59.919 Y16.246 E.01406
;WIDTH:0.575456
G1 X60.226 Y16.097 E.01511
G1 X60.88 Y16.017 E.02918
;WIDTH:0.574004
G1 X61.329 Y16.065 E.01994
;WIDTH:0.561653
G1 X61.619 Y16.175 E.01338
;WIDTH:0.530826
G1 X61.908 Y16.286 E.01256
;WIDTH:0.499999
G1 X62.478 Y16.659 E.02589
G1 X62.87 Y17.112 E.02277
;WIDTH:0.534372
G1 X63.055 Y17.446 E.0156
;WIDTH:0.568744
G1 X63.175 Y17.663 E.01084
M204 P1000
G1 E-.64 F2100
;WIPE_START
G1 F9600
G1 X63.24 Y17.781 E-.028
G1 X63.284 Y17.848 E-.01666
G1 X63.341 Y18.4 E-.11534
;WIPE_END
G1 Z.4 F720
G1 X30.353 Y17.141 F12000
G1 Z.2 F720
G1 E.8 F1500
M204 P600
;TYPE:Perimeter
;WIDTH:0.416225
G1 F1200
G1 X30.228 Y17.424 E.0096
G1 X30.228 Y17.225 E.00618
G1 X30.273 Y16.708 E.01611
G1 X30.459 Y16.338 E.01285
;WIDTH:0.419
G1 X30.78 Y16.039 E.01372
G1 X31.052 Y15.919 E.0093
G1 X31.243 Y15.889 E.00605
G1 X31.794 Y15.867 E.01724
G1 X31.326 Y16.087 E.01617
;WIDTH:0.420163
G1 X30.866 Y16.449 E.01836
G1 X30.7 Y16.639 E.00791
;WIDTH:0.416225
G1 X30.377 Y17.086 E.01712
M204 P1000
G1 X30.499 Y17.819 F12000
M204 P600
;TYPE:External perimeter
;WIDTH:0.596239
G1 F1200
G1 X30.55 Y17.699 E.006
;WIDTH:0.548119
G1 X30.687 Y17.379 E.01462
;WIDTH:0.499999
G1 X31.036 Y16.884 E.02302
G1 X31.464 Y16.509 E.02163
G1 X31.637 Y16.383 E.00813
;WIDTH:0.536885
G1 X31.931 Y16.241 E.01341
;WIDTH:0.573771
G1 X32.224 Y16.099 E.01437
;WIDTH:0.605849
G1 X32.295 Y16.064 E.00371
G1 X32.879 Y16.017 E.02742
;WIDTH:0.574004
G1 X33.329 Y16.065 E.01998
;WIDTH:0.561653
G1 X33.619 Y16.175 E.01338
;WIDTH:0.530826
G1 X33.908 Y16.286 E.01256
;WIDTH:0.499999
G1 X33.965 Y16.313 E.0024
G1 X34.478 Y16.659 E.02352
G1 X34.923 Y17.176 E.02593
G1 X35.208 Y17.795 E.0259
G1 X35.312 Y18.468 E.02588
G1 X35.226 Y19.144 E.0259
G1 X34.957 Y19.77 E.0259
G1 X34.525 Y20.298 E.02593
G1 X33.965 Y20.687 E.02591
G1 X33.32 Y20.906 E.02589
G1 X32.639 Y20.938 E.02591
G1 X31.976 Y20.782 E.02589
G1 X31.381 Y20.449 E.02591
G1 X30.901 Y19.965 E.02591
G1 X30.574 Y19.367 E.0259
;WIDTH:0.537246
G1 X30.48 Y19.041 E.01395
;WIDTH:0.574493
G1 X30.387 Y18.714 E.01503
;WIDTH:0.596239
G1 X30.414 Y18.019 E.032
G1 X30.476 Y17.874 E.00726
M204 P1000
G1 X30.412 Y17.722 F12000
G1 E-.64 F2100
;WIPE_START
G1 F9600
G1 X30.55 Y17.699 E-.03948
G1 X30.687 Y17.379 E-.07234
G1 X30.821 Y17.19 E-.04818
;WIPE_END
G1 Z.4 F720
G1 X45.563 Y114.233 F12000
G1 Z.2 F720
G1 E.8 F1500
M204 P600
;TYPE:Perimeter
;WIDTH:0.499999
G1 F1200
G1 X45.125 Y114.792 E.02699
G1 X44.471 Y115.266 E.0307
G1 X43.711 Y115.54 E.0307
G1 X42.905 Y115.595 E.0307
G1 X42.115 Y115.425 E.03071
G1 X41.402 Y115.045 E.03071
G1 X40.822 Y114.482 E.03072
G1 X40.42 Y113.782 E.03068
G1 X40.227 Y113.002 E.03054
G1 X40.256 Y112.191 E.03084
G1 X40.507 Y111.422 E.03074
G1 X40.96 Y110.753 E.03071
G1 X41.551 Y110.255 E.02937
G1 X42.312 Y109.911 E.03174
G1 X43.084 Y109.799 E.02965
G1 X43.585 Y109.832 E.01908
G1 X44.299 Y110.051 E.02838
G1 X44.983 Y110.48 E.03069
G1 X45.502 Y111.053 E.02938
G1 X45.872 Y111.802 E.03175
G1 X46.014 Y112.605 E.03099
G1 X45.928 Y113.408 E.03069
G1 X45.624 Y114.156 E.03069
G1 X45.6 Y114.186 E.00146
M204 P1000
G1 X45.227 Y113.923 F12000
M204 P600
;TYPE:External perimeter
G1 F1200
G1 X45.206 Y113.97 E.00196
G1 X44.775 Y114.498 E.0259
G1 X44.215 Y114.887 E.02591
G1 X43.57 Y115.106 E.02589
G1 X42.889 Y115.138 E.02591
G1 X42.225 Y114.982 E.02592
G1 X41.621 Y114.643 E.02632
G1 X41.151 Y114.165 E.02548
G1 X40.823 Y113.567 E.02592
G1 X40.674 Y112.906 E.02575
G1 X40.712 Y112.222 E.02604
G1 X40.936 Y111.579 E.02588
G1 X41.33 Y111.022 E.02593
G1 X41.834 Y110.614 E.02464
G1 X42.488 Y110.333 E.02705
G1 X43.133 Y110.253 E.0247
G1 X43.569 Y110.294 E.01664
G1 X44.158 Y110.486 E.02355
