; generated by PrusaSlicer 2.6.0+win64 on 2023-08-02 at 19:03:08 UTC


;
;

;
;

;
;
; 

; external perimeters extrusion width = 0.45mm
; perimeters extrusion width = 0.45mm
; infill extrusion width = 0.45mm
; solid infill extrusion width = 0.45mm
; top infill extrusion width = 0.40mm
; support material extrusion width = 0.37mm
; first layer extrusion width = 0.50mm

M73 P0 R17
M201 X2500 Y2500 Z200 E2500 ; sets maximum accelerations, mm/sec^2
M203 X200 Y200 Z40 E100 ; sets maximum feedrates, mm / sec
M204 P2000 R1200 T2000 ; sets acceleration (P, T) and retract acceleration (R), mm/sec^2
M205 X8.00 Y8.00 Z2.00 E10.00 ; sets the jerk limits, mm/sec
M205 S0 T0 ; sets the minimum extruding and travel feed rate, mm/sec
;TYPE:Custom
M17 ; enable steppers
M862.3 P "MK4" ; printer model check
M862.1 P0.4 ; nozzle diameter check
M555 X116.709 Y95.2122 W32 H31.1571

G90 ; use absolute coordinates
M83 ; extruder relative mode

M140 S60 ; set bed temp

M104 S170 ; set extruder temp for bed leveling
M109 R170 ; wait for temp


M84 E ; turn off E motor

G28 ; home all without mesh bed level

G1 X42 Y-4 Z5 F4800

M302 S160 ; lower cold extrusion limit to 160C


G1 E-2 F2400 ; retraction


M84 E ; turn off E motor

G29 P9 X10 Y-4 W32 H4

M106 S100

G0 Z40 F10000

M190 S60 ; wait for bed temp

M107

;
; MBL
;
M84 E ; turn off E motor
G29 P1 ; invalidate mbl & probe print area
G29 P1 X0 Y0 W50 H20 C ; probe near purge place
G29 P3.2 ; interpolate mbl probes
G29 P3.13 ; extrapolate mbl outside probe area
G29 A ; activate mbl

; prepare for purge
M104 S215
G0 X0 Y-4 Z15 F4800 ; move away and ready for the purge
M109 S215

G92 E0
M569 S0 E ; set spreadcycle mode for extruder

;
; Extrude purge line
;
G92 E0 ; reset extruder position
G1 E2 F2400 ; deretraction after the initial one before nozzle cleaning
G0 E7 X15 Z0.2 F500 ; purge
G0 X25 E4 F500 ; purge
G0 X35 E4 F650 ; purge
G0 X45 E4 F800 ; purge
G0 X48 Z0.05 F8000 ; wipe, move close to the bed
G0 X51 Z0.2 F8000 ; wipe, move quickly away from the bed

G92 E0
M221 S100 ; set flow to 100%
G21 ; set units to millimeters
G90 ; use absolute coordinates
M83 ; use relative distances for extrusion
M900 K0.05 ; Filament gcode



M142 S36 ; set heatbreak target temp
M107
;LAYER_CHANGE
;Z:0.2
;HEIGHT:0.2
;BEFORE_LAYER_CHANGE
G92 E0.0
;0.2


G1 E-.8 F2100
G1 Z.2 F720
;AFTER_LAYER_CHANGE
;0.2
G1 Z.4
G1 X118.338 Y101.726 F12000
G1 Z.2 F720
G1 E.8 F1500
M204 P600
;TYPE:Skirt/Brim
;WIDTH:0.5
G1 F1200
G1 X119.265 Y100.809 E.04956
G1 X119.79 Y100.48 E.02355
G1 X120.374 Y100.217 E.02434
G1 X121.216 Y100.004 E.03301
G1 X122.571 Y99.875 E.05173
G1 X138.006 Y99.876 E.58663
G1 X139.77 Y100.082 E.0675
G1 X140.38 Y100.289 E.02448
G1 X141.09 Y100.659 E.03043
G1 X141.664 Y101.107 E.02767
G1 X142.302 Y101.812 E.03614
G1 X142.586 Y102.271 E.02051
G1 X142.821 Y102.77 E.02096
G1 X143.069 Y103.689 E.03618
G1 X143.205 Y105.124 E.05478
M73 P1 R17
G1 X143.208 Y120.403 E.5807
G1 X142.998 Y122.264 E.07118
G1 X142.832 Y122.78 E.0206
G1 X142.609 Y123.27 E.02046
G1 X142.237 Y123.856 E.02638
G1 X141.27 Y124.803 E.05144
G1 X140.785 Y125.102 E.02165
G1 X140.238 Y125.352 E.02286
G1 X139.355 Y125.578 E.03464
G1 X137.894 Y125.712 E.05576
G1 X122.674 Y125.712 E.57846
G1 X120.813 Y125.502 E.07118
G1 X120.298 Y125.336 E.02056
G1 X119.808 Y125.113 E.02046
G1 X119.222 Y124.74 E.0264
G1 X118.275 Y123.774 E.05141
G1 X117.976 Y123.288 E.02169
G1 X117.726 Y122.741 E.02286
G1 X117.5 Y121.858 E.03464
G1 X117.366 Y120.397 E.05576
G1 X117.366 Y105.178 E.57842
G1 X117.576 Y103.317 E.07118
G1 X117.742 Y102.802 E.02056
G1 X117.965 Y102.311 E.0205
G1 X118.306 Y101.776 E.02411
M204 P1000
G1 X118.69 Y102.023 F12000
M204 P600
G1 F1200
G1 X119.566 Y101.154 E.0469
G1 X120.017 Y100.877 E.02012
G1 X120.507 Y100.654 E.02046
G1 X121.277 Y100.457 E.03021
G1 X122.582 Y100.332 E.04983
G1 X137.967 Y100.331 E.58473
G1 X139.648 Y100.524 E.06431
G1 X140.187 Y100.703 E.02159
G1 X140.827 Y101.034 E.02738
G1 X141.34 Y101.43 E.02463
G1 X141.925 Y102.071 E.03298
G1 X142.191 Y102.5 E.01918
G1 X142.398 Y102.945 E.01865
G1 X142.622 Y103.787 E.03311
G1 X142.748 Y105.134 E.05142
G1 X142.751 Y120.391 E.57986
G1 X142.555 Y122.148 E.06719
G1 X142.41 Y122.603 E.01815
G1 X142.2 Y123.066 E.01932
G1 X141.866 Y123.587 E.02352
G1 X141.009 Y124.427 E.04561
G1 X140.558 Y124.705 E.02014
G1 X140.067 Y124.927 E.02048
G1 X139.295 Y125.125 E.03029
G1 X137.883 Y125.254 E.05389
G1 X122.687 Y125.254 E.57754
G1 X120.93 Y125.059 E.06719
G1 X120.475 Y124.914 E.01815
G1 X120.012 Y124.703 E.01934
G1 X119.491 Y124.369 E.02352
G1 X118.651 Y123.512 E.04561
G1 X118.373 Y123.061 E.02014
G1 X118.151 Y122.571 E.02045
G1 X117.953 Y121.798 E.03033
G1 X117.823 Y120.387 E.05385
G1 X117.823 Y105.19 E.57758
G1 X118.019 Y103.434 E.06715
G1 X118.164 Y102.978 E.01819
G1 X118.375 Y102.516 E.0193
G1 X118.658 Y102.073 E.01998
M204 P1000
G1 X119.042 Y102.321 F12000
M204 P600
G1 F1200
G1 X119.078 Y102.264 E.00256
G1 X119.827 Y101.53 E.03986
G1 X120.243 Y101.274 E.01856
G1 X120.676 Y101.079 E.01805
G1 X121.338 Y100.91 E.02597
G1 X122.615 Y100.788 E.04876
G1 X137.954 Y100.788 E.58298
G1 X139.529 Y100.965 E.06024
G1 X139.996 Y101.119 E.01869
G1 X140.567 Y101.41 E.02436
G1 X141.018 Y101.755 E.02158
G1 X141.549 Y102.332 E.0298
G1 X141.783 Y102.706 E.01677
G1 X141.976 Y103.12 E.01736
G1 X142.169 Y103.849 E.02866
G1 X142.291 Y105.145 E.04947
G1 X142.294 Y120.379 E.57899
G1 X142.113 Y122.031 E.06316
G1 X141.979 Y122.451 E.01676
G1 X141.792 Y122.86 E.01709
G1 X141.496 Y123.317 E.02069
G1 X140.747 Y124.051 E.03986
G1 X140.331 Y124.308 E.01858
G1 X139.898 Y124.502 E.01803
G1 X139.235 Y124.671 E.026
G1 X137.873 Y124.797 E.05199
M73 P2 R17
G1 X122.699 Y124.797 E.57671
G1 X121.047 Y124.617 E.06316
G1 X120.627 Y124.483 E.01676
G1 X120.218 Y124.295 E.01711
G1 X119.76 Y124 E.02071
G1 X119.027 Y123.251 E.03983
G1 X118.77 Y122.835 E.01858
G1 X118.576 Y122.402 E.01803
G1 X118.406 Y121.738 E.02605
G1 X118.281 Y120.376 E.05198
G1 X118.281 Y105.202 E.57671
G1 X118.461 Y103.551 E.06312
G1 X118.595 Y103.131 E.01676
G1 X118.783 Y102.722 E.01711
G1 X119.009 Y102.371 E.01587
M204 P1000
G1 X119.392 Y102.62 F12000
M204 P600
G1 F1200
G1 X119.447 Y102.535 E.00385
G1 X120.09 Y101.905 E.03421
G1 X120.445 Y101.684 E.01589
G1 X120.845 Y101.504 E.01667
G1 X121.399 Y101.364 E.02172
G1 X122.647 Y101.244 E.04765
G1 X137.917 Y101.244 E.58036
G1 X139.411 Y101.408 E.05712
M73 P2 R16
G1 X139.808 Y101.536 E.01585
G1 X140.309 Y101.788 E.02131
G1 X140.698 Y102.082 E.01853
G1 X141.173 Y102.593 E.02652
G1 X141.387 Y102.936 E.01537
G1 X141.552 Y103.293 E.01495
G1 X141.716 Y103.911 E.0243
G1 X141.834 Y105.156 E.04753
G1 X141.837 Y120.367 E.57811
G1 X141.67 Y121.914 E.05914
G1 X141.548 Y122.298 E.01531
G1 X141.384 Y122.652 E.01483
G1 X141.127 Y123.047 E.01791
G1 X140.485 Y123.676 E.03416
G1 X140.129 Y123.897 E.01593
G1 X139.729 Y124.077 E.01667
G1 X139.175 Y124.218 E.02173
G1 X137.862 Y124.34 E.05012
G1 X122.711 Y124.34 E.57583
G1 X121.164 Y124.174 E.05913
G1 X120.78 Y124.052 E.01531
G1 X120.426 Y123.888 E.01483
G1 X120.031 Y123.631 E.01791
G1 X119.401 Y122.988 E.03421
G1 X119.181 Y122.633 E.01587
G1 X119.001 Y122.233 E.01667
G1 X118.86 Y121.678 E.02176
G1 X118.738 Y120.366 E.05008
G1 X118.738 Y105.214 E.57587
G1 X118.904 Y103.668 E.0591
G1 X119.026 Y103.284 E.01531
G1 X119.19 Y102.93 E.01483
G1 X119.359 Y102.671 E.01175
M204 P1000
G1 X119.74 Y102.922 F12000
M204 P600
G1 F1200
G1 X119.815 Y102.807 E.00522
G1 X120.354 Y102.279 E.02868
G1 X120.647 Y102.095 E.01315
G1 X121.014 Y101.93 E.01529
G1 X121.46 Y101.817 E.01749
G1 X122.68 Y101.7 E.04658
G1 X137.881 Y101.7 E.57773
G1 X139.296 Y101.851 E.05408
G1 X139.622 Y101.954 E.01299
G1 X140.053 Y102.167 E.01827
G1 X140.379 Y102.41 E.01545
G1 X140.799 Y102.857 E.02331
G1 X140.979 Y103.142 E.01281
G1 X141.129 Y103.467 E.0136
G1 X141.263 Y103.973 E.01989
G1 X141.377 Y105.167 E.04559
G1 X141.38 Y120.355 E.57724
G1 X141.227 Y121.799 E.05519
G1 X141.127 Y122.12 E.01278
G1 X140.977 Y122.444 E.01357
G1 X140.759 Y122.775 E.01506
G1 X140.221 Y123.303 E.02865
G1 X139.927 Y123.487 E.01318
G1 X139.56 Y123.652 E.01529
G1 X139.114 Y123.765 E.01749
G1 X137.851 Y123.883 E.04821
G1 X122.723 Y123.883 E.57496
G1 X121.278 Y123.731 E.05522
G1 X120.958 Y123.63 E.01275
G1 X120.634 Y123.48 E.01357
G1 X120.303 Y123.263 E.01504
G1 X119.775 Y122.724 E.02868
G1 X119.591 Y122.43 E.01318
G1 X119.426 Y122.063 E.01529
G1 X119.313 Y121.618 E.01745
G1 X119.195 Y120.355 E.04821
G1 X119.195 Y105.226 E.575
G1 X119.347 Y103.782 E.05518
G1 X119.448 Y103.462 E.01275
G1 X119.598 Y103.138 E.01357
G1 X119.707 Y102.972 E.00755
M204 P1000
G1 X120.086 Y103.225 F12000
M204 P600
G1 F1200
G1 X120.182 Y103.081 E.00658
G1 X120.62 Y102.651 E.02333
G1 X120.851 Y102.504 E.01041
M73 P3 R16
G1 X121.183 Y102.355 E.01383
G1 X121.52 Y102.27 E.01321
G1 X122.712 Y102.156 E.04551
G1 X137.846 Y102.156 E.57519
G1 X139.183 Y102.294 E.05108
G1 X139.44 Y102.373 E.01022
G1 X139.801 Y102.549 E.01526
G1 X140.063 Y102.741 E.01235
G1 X140.426 Y103.122 E.02
G1 X140.571 Y103.349 E.01024
G1 X140.706 Y103.641 E.01223
G1 X140.808 Y104.029 E.01525
G1 X140.919 Y105.181 E.04399
G1 X140.923 Y120.344 E.57629
G1 X140.784 Y121.687 E.05132
G1 X140.705 Y121.942 E.01015
G1 X140.57 Y122.235 E.01226
G1 X140.392 Y122.501 E.01216
G1 X139.955 Y122.93 E.02327
G1 X139.724 Y123.077 E.01041
G1 X139.391 Y123.227 E.01388
G1 X139.054 Y123.311 E.0132
G1 X137.84 Y123.426 E.04635
G1 X122.734 Y123.426 E.57412
G1 X121.391 Y123.288 E.05131
G1 X121.136 Y123.209 E.01015
G1 X120.843 Y123.073 E.01228
G1 X120.577 Y122.896 E.01214
G1 X120.148 Y122.458 E.0233
G1 X120.001 Y122.227 E.01041
G1 X119.851 Y121.895 E.01385
G1 X119.767 Y121.558 E.0132
G1 X119.652 Y120.344 E.04635
G1 X119.652 Y105.238 E.57412
G1 X119.79 Y103.894 E.05135
G1 X119.869 Y103.639 E.01015
G1 X120.005 Y103.346 E.01228
G1 X120.053 Y103.275 E.00326
M204 P1000
G1 X120.429 Y103.53 F12000
M204 P600
G1 F1200
G1 X120.547 Y103.357 E.00796
G1 X120.888 Y103.022 E.01817
G1 X121.055 Y102.914 E.00756
G1 X121.352 Y102.78 E.01238
G1 X121.58 Y102.724 E.00892
G1 X122.745 Y102.612 E.04448
G1 X137.835 Y102.613 E.57352
G1 X139.074 Y102.738 E.04733
G1 X139.261 Y102.794 E.00742
G1 X139.553 Y102.933 E.01229
G1 X139.75 Y103.075 E.00923
G1 X140.056 Y103.391 E.01672
G1 X140.163 Y103.556 E.00747
G1 X140.283 Y103.815 E.01085
G1 X140.354 Y104.086 E.01065
G1 X140.398 Y104.622 E.02044
G1 X140.462 Y105.194 E.02188
G1 X140.465 Y120.332 E.57534
G1 X140.34 Y121.578 E.04759
G1 X140.283 Y121.766 E.00747
G1 X140.163 Y122.025 E.01085
G1 X140.028 Y122.224 E.00914
G1 X139.686 Y122.56 E.01822
G1 X139.519 Y122.668 E.00756
G1 X139.223 Y122.801 E.01233
G1 X138.994 Y122.858 E.00897
G1 X137.829 Y122.969 E.04448
G1 X122.745 Y122.969 E.57329
G1 X121.5 Y122.843 E.04756
G1 X121.312 Y122.787 E.00746
G1 X121.053 Y122.667 E.01085
G1 X120.853 Y122.531 E.00919
G1 X120.518 Y122.19 E.01817
G1 X120.41 Y122.023 E.00756
G1 X120.277 Y121.726 E.01237
G1 X120.22 Y121.498 E.00893
G1 X120.109 Y120.333 E.04448
G1 X120.109 Y105.249 E.57329
G1 X120.235 Y104.004 E.04756
G1 X120.291 Y103.816 E.00746
G1 X120.399 Y103.582 E.0098
M204 P1000
G1 X120.814 Y103.774 F12000
M204 P600
G1 F1200
G1 X120.908 Y103.637 E.00631
G1 X121.161 Y103.389 E.01346
G1 X121.261 Y103.322 E.00457
G1 X121.519 Y103.206 E.01075
G1 X121.639 Y103.177 E.00469
G1 X122.756 Y103.07 E.04265
G1 X137.824 Y103.07 E.57268
G1 X138.97 Y103.183 E.04377
G1 X139.087 Y103.217 E.00463
G1 X139.31 Y103.32 E.00934
G1 X139.441 Y103.412 E.00608
G1 X139.689 Y103.664 E.01344
G1 X139.756 Y103.766 E.00464
G1 X139.86 Y103.988 E.00932
G1 X139.9 Y104.144 E.00612
G1 X139.943 Y104.667 E.01994
G1 X140.005 Y105.208 E.0207
G1 X140.008 Y120.321 E.57439
G1 X139.894 Y121.473 E.044
G1 X139.861 Y121.591 E.00466
G1 X139.757 Y121.814 E.00935
G1 X139.666 Y121.945 E.00606
G1 X139.414 Y122.193 E.01344
G1 X139.313 Y122.259 E.00459
G1 X139.055 Y122.375 E.01075
G1 X138.935 Y122.404 E.00469
G1 X137.818 Y122.512 E.04265
M73 P4 R16
G1 X122.756 Y122.512 E.57245
G1 X121.605 Y122.398 E.04396
G1 X121.487 Y122.364 E.00467
G1 X121.264 Y122.261 E.00934
G1 X121.133 Y122.17 E.00606
G1 X120.885 Y121.917 E.01346
G1 X120.819 Y121.817 E.00455
G1 X120.703 Y121.559 E.01075
G1 X120.674 Y121.439 E.00469
G1 X120.566 Y120.322 E.04265
G1 X120.566 Y105.26 E.57245
G1 X120.68 Y104.108 E.044
G1 X120.714 Y103.991 E.00463
G1 X120.789 Y103.829 E.00678
M204 P1000
G1 X121.203 Y104.021 F12000
M204 P600
G1 F1200
G1 X121.246 Y103.945 E.00332
G1 X121.442 Y103.75 E.01051
G1 X121.659 Y103.642 E.00921
G1 X122.771 Y103.527 E.04249
G1 X137.81 Y103.527 E.57158
G1 X138.877 Y103.631 E.04074
G1 X139.133 Y103.75 E.01073
G1 X139.328 Y103.945 E.01048
G1 X139.436 Y104.162 E.00921
G1 X139.548 Y105.221 E.04047
G1 X139.551 Y120.307 E.57336
G1 X139.447 Y121.38 E.04097
G1 X139.328 Y121.636 E.01073
G1 X139.133 Y121.832 E.01051
G1 X138.916 Y121.94 E.00921
G1 X137.804 Y122.055 E.04249
G1 X122.771 Y122.055 E.57135
G1 X121.698 Y121.95 E.04098
G1 X121.442 Y121.832 E.01071
G1 X121.246 Y121.636 E.01053
G1 X121.138 Y121.419 E.00921
G1 X121.023 Y120.307 E.04249
G1 X121.023 Y105.274 E.57135
G1 X121.128 Y104.201 E.04098
G1 X121.178 Y104.075 E.00515
M204 P1000
G1 X121.593 Y104.267 F12000
M204 P600
G1 F1200
G1 X121.612 Y104.225 E.00175
G1 X121.722 Y104.116 E.00589
G1 X121.795 Y104.082 E.00306
G1 X122.784 Y103.984 E.03777
G1 X137.796 Y103.984 E.57055
G1 X138.779 Y104.082 E.03755
G1 X138.853 Y104.116 E.0031
G1 X138.962 Y104.225 E.00586
G1 X138.996 Y104.299 E.0031
G1 X139.034 Y104.758 E.0175
G1 X139.093 Y105.261 E.01925
G1 X139.094 Y120.294 E.57135
G1 X138.996 Y121.282 E.03773
G1 X138.962 Y121.356 E.0031
G1 X138.853 Y121.465 E.00586
G1 X138.779 Y121.5 E.00311
G1 X137.79 Y121.598 E.03777
G1 X122.784 Y121.598 E.57032
G1 X121.795 Y121.5 E.03777
G1 X121.722 Y121.465 E.00308
G1 X121.612 Y121.356 E.00589
G1 X121.578 Y121.282 E.0031
G1 X121.48 Y120.294 E.03773
G1 X121.48 Y105.288 E.57032
G1 X121.576 Y104.324 E.03682
M204 P1000
; printing object cap_sup_suspensie id:0 copy 0
G1 E-.64 F2100
;WIPE_START
G1 F9600
G1 X121.612 Y104.225 E-.02189
G1 X121.722 Y104.116 E-.03218
G1 X121.795 Y104.082 E-.01674
G1 X122.222 Y104.04 E-.08919
;WIPE_END
G1 Z.4 F720
G1 X137.177 Y119.681 F12000
G1 Z.2 F720
G1 E.8 F1500
M204 P600
;TYPE:Support material
G1 F1200
G1 X123.397 Y119.681 E.52373
G1 X123.397 Y105.901 E.52373
G1 X137.177 Y105.901 E.52373
G1 X137.177 Y119.612 E.5211
M204 P1000
G1 X136.572 Y119.475 F12000
M204 P600
G1 F1200
G1 X136.572 Y106.312 E.50028
G1 X136.001 Y106.312 E.0217
G1 X136.001 Y119.269 E.49245
G1 X135.429 Y119.269 E.02174
G1 X135.429 Y106.312 E.49245
M73 P5 R16
G1 X134.858 Y106.312 E.0217
G1 X134.858 Y119.269 E.49245
G1 X134.287 Y119.269 E.0217
G1 X134.287 Y106.312 E.49245
G1 X133.715 Y106.312 E.02174
G1 X133.715 Y119.269 E.49245
G1 X133.144 Y119.269 E.0217
G1 X133.144 Y106.312 E.49245
G1 X132.573 Y106.312 E.0217
G1 X132.573 Y119.269 E.49245
G1 X132.001 Y119.269 E.02174
G1 X132.001 Y106.312 E.49245
G1 X131.43 Y106.312 E.0217
G1 X131.43 Y119.269 E.49245
G1 X130.859 Y119.269 E.0217
G1 X130.859 Y106.312 E.49245
G1 X130.287 Y106.312 E.02174
G1 X130.287 Y119.269 E.49245
G1 X129.716 Y119.269 E.0217
G1 X129.716 Y106.312 E.49245
G1 X129.144 Y106.312 E.02174
G1 X129.144 Y119.269 E.49245
G1 X128.573 Y119.269 E.0217
G1 X128.573 Y106.312 E.49245
G1 X128.002 Y106.312 E.0217
G1 X128.002 Y119.269 E.49245
G1 X127.43 Y119.269 E.02174
G1 X127.43 Y106.312 E.49245
G1 X126.859 Y106.312 E.0217
M73 P6 R16
G1 X126.859 Y119.269 E.49245
G1 X126.288 Y119.269 E.0217
G1 X126.288 Y106.312 E.49245
G1 X125.716 Y106.312 E.02174
G1 X125.716 Y119.269 E.49245
G1 X125.145 Y119.269 E.0217
G1 X125.145 Y106.312 E.49245
G1 X124.574 Y106.312 E.0217
G1 X124.574 Y119.269 E.49245
G1 X124.002 Y119.269 E.02174
G1 X124.002 Y106.106 E.50028
M204 P1000
G1 E-.64 F2100
;WIPE_START
G1 F9600
G1 X124.002 Y106.876 E-.16
;WIPE_END
G1 Z.4 F720
G1 X138.424 Y104.659 F12000
G1 Z.2 F720
G1 E.8 F1500
M204 P600
;TYPE:External perimeter
;WIDTH:0.550616
G1 F1200
G1 X138.478 Y105.067 E.01737
;WIDTH:0.525308
G1 X138.516 Y105.315 E.01006
;WIDTH:0.5
G1 X138.516 Y120.266 E.56823
G1 X138.505 Y120.403 E.00522
;WIDTH:0.52401
