; generated by PrusaSlicer 2.6.0+win64 on 2023-07-03 at 10:39:40 UTC


;
;

;
;

;
;
; 

; external perimeters extrusion width = 0.45mm
; perimeters extrusion width = 0.45mm
; infill extrusion width = 0.45mm
; solid infill extrusion width = 0.45mm
; top infill extrusion width = 0.42mm
; first layer extrusion width = 0.50mm

M73 P0 R23
M201 X2500 Y2500 Z200 E2500 ; sets maximum accelerations, mm/sec^2
M203 X200 Y200 Z40 E100 ; sets maximum feedrates, mm / sec
M204 P2000 R1200 T2000 ; sets acceleration (P, T) and retract acceleration (R), mm/sec^2
M205 X8.00 Y8.00 Z2.00 E10.00 ; sets the jerk limits, mm/sec
M205 S0 T0 ; sets the minimum extruding and travel feed rate, mm/sec
;TYPE:Custom
M17 ; enable steppers
M862.3 P "MK4" ; printer model check
M862.1 P0.4 ; nozzle diameter check
M555 X76.624 Y88 W96.7521 H29.5643

G90 ; use absolute coordinates
M83 ; extruder relative mode

M140 S60 ; set bed temp

M104 S170 ; set extruder temp for bed leveling
M109 R170 ; wait for temp


M84 E ; turn off E motor

G28 ; home all without mesh bed level

G1 X42 Y-4 Z5 F4800

M302 S160 ; lower cold extrusion limit to 160C


G1 E-2 F2400 ; retraction


M84 E ; turn off E motor

G29 P9 X10 Y-4 W32 H4

M106 S100

G0 Z40 F10000

M190 S60 ; wait for bed temp

M107

;
; MBL
;
M84 E ; turn off E motor
G29 P1 ; invalidate mbl & probe print area
G29 P1 X0 Y0 W50 H20 C ; probe near purge place
G29 P3.2 ; interpolate mbl probes
G29 P3.13 ; extrapolate mbl outside probe area
G29 A ; activate mbl

; prepare for purge
M104 S215
G0 X0 Y-4 Z15 F4800 ; move away and ready for the purge
M109 S215

G92 E0
M569 S0 E ; set spreadcycle mode for extruder

;
; Extrude purge line
;
G92 E0 ; reset extruder position
G1 E2 F2400 ; deretraction after the initial one before nozzle cleaning
G0 E7 X15 Z0.2 F500 ; purge
G0 X25 E4 F500 ; purge
G0 X35 E4 F650 ; purge
G0 X45 E4 F800 ; purge
G0 X48 Z0.05 F8000 ; wipe, move close to the bed
G0 X51 Z0.2 F8000 ; wipe, move quickly away from the bed

G92 E0
M221 S100 ; set flow to 100%
G21 ; set units to millimeters
G90 ; use absolute coordinates
M83 ; use relative distances for extrusion
M900 K0.05 ; Filament gcode



M142 S36 ; set heatbreak target temp
M107
;LAYER_CHANGE
;Z:0.2
;HEIGHT:0.2
;BEFORE_LAYER_CHANGE
G92 E0.0
;0.2


G1 E-.8 F2100
G1 Z.2 F720
;AFTER_LAYER_CHANGE
;0.2
; printing object test_rc_car_crossbar id:0 copy 0
G1 Z.4
G1 X166.169 Y109.695 F12000
G1 Z.2 F720
G1 E.8 F1500
M204 P600
;TYPE:Perimeter
;WIDTH:0.499999
G1 F1200
M73 P0 R22
G1 X166.155 Y109.78 E.00327
G1 X166.162 Y112.672 E.10991
G1 X166.186 Y113.567 E.03403
G1 X165.926 Y113.35 E.01287
G1 X165.454 Y113.159 E.01935
G1 X165 Y113.094 E.01743
G1 X164.472 Y113.18 E.02033
G1 X164.229 Y113.274 E.0099
G1 X163.828 Y113.545 E.01839
G1 X163.838 Y113.289 E.00974
G1 X163.845 Y109.781 E.13333
G1 X163.806 Y109.55 E.0089
G1 X163.657 Y109.307 E.01083
G1 X163.454 Y109.16 E.00953
G1 X163.159 Y109.093 E.0115
G1 X157.531 Y109.093 E.2139
G1 X157.531 Y107.779 E.04994
G1 X157.504 Y107.589 E.00729
G1 X157.34 Y107.304 E.0125
G1 X157.052 Y107.125 E.01289
G1 X156.845 Y107.093 E.00796
G1 X93.38 Y107.093 E2.41207
G1 X92.948 Y107.125 E.01646
G1 X92.674 Y107.29 E.01216
G1 X92.548 Y107.46 E.00804
G1 X92.469 Y107.779 E.01249
G1 X92.469 Y109.093 E.04994
G1 X86.841 Y109.093 E.2139
G1 X86.585 Y109.142 E.00991
G1 X86.388 Y109.264 E.00881
G1 X86.194 Y109.55 E.01313
G1 X86.155 Y109.78 E.00887
G1 X86.162 Y112.673 E.10995
M73 P1 R22
G1 X86.186 Y113.567 E.03399
G1 X85.926 Y113.35 E.01287
G1 X85.454 Y113.159 E.01935
G1 X85 Y113.095 E.01743
G1 X84.471 Y113.18 E.02036
G1 X84.229 Y113.274 E.00987
G1 X83.828 Y113.545 E.01839
G1 X83.838 Y113.289 E.00974
G1 X83.845 Y109.781 E.13333
G1 X83.806 Y109.55 E.0089
G1 X83.657 Y109.307 E.01083
G1 X83.454 Y109.16 E.00953
G1 X83.159 Y109.093 E.0115
G1 X82.44 Y109.093 E.02733
G1 X82.201 Y109.116 E.00913
;WIDTH:0.454793
G1 X81.961 Y109.138 E.00825
;WIDTH:0.409587
G1 X81.721 Y109.161 E.00735
;WIDTH:0.36438
G1 X77.463 Y109.161 E.11381
G1 X77.463 Y108.839 E.00861
G1 X81.721 Y108.839 E.11381
;WIDTH:0.370279
G1 X81.829 Y108.833 E.00294
;WIDTH:0.413519
G1 X81.967 Y108.777 E.00459
;WIDTH:0.456759
G1 X82.105 Y108.722 E.00511
;WIDTH:0.499999
G1 X82.243 Y108.666 E.00566
G1 X82.407 Y108.221 E.01802
G1 X82.407 Y105.878 E.08905
;WIDTH:0.54224
G1 X82.428 Y105.697 E.00757
;WIDTH:0.58448
G1 X82.449 Y105.516 E.00821
;WIDTH:0.62672
G1 X82.47 Y105.335 E.00885
;WIDTH:0.628168
G1 X82.471 Y104.698 E.031
G1 X82.452 Y104.579 E.00586
;WIDTH:0.589648
G1 X82.433 Y104.459 E.00552
;WIDTH:0.551127
G1 X82.413 Y104.339 E.00514
;WIDTH:0.512606
G1 X82.407 Y103.926 E.01613
;WIDTH:0.499999
G1 X82.407 Y101.535 E.09087
G1 X82.386 Y101.252 E.01079
;WIDTH:0.457084
G1 X82.364 Y100.969 E.00978
;WIDTH:0.414168
G1 X82.343 Y100.685 E.00879
;WIDTH:0.383661
G1 X82.349 Y100.103 E.01649
;WIDTH:0.423802
G1 X82.369 Y99.966 E.00438
;WIDTH:0.463942
G1 X82.389 Y99.829 E.00485
;WIDTH:0.499999
G1 X82.407 Y99.247 E.02213
G1 X82.407 Y95.878 E.12804
;WIDTH:0.54224
G1 X82.428 Y95.697 E.00757
;WIDTH:0.58448
G1 X82.449 Y95.516 E.00821
;WIDTH:0.62672
G1 X82.47 Y95.335 E.00885
;WIDTH:0.628166
G1 X82.471 Y94.698 E.031
G1 X82.452 Y94.579 E.00586
;WIDTH:0.589645
G1 X82.433 Y94.459 E.00552
;WIDTH:0.551123
G1 X82.413 Y94.339 E.00514
;WIDTH:0.512601
G1 X82.407 Y93.926 E.01613
;WIDTH:0.499999
G1 X82.407 Y92.907 E.03873
G1 X83.756 Y92.907 E.05127
G1 X84.106 Y92.883 E.01333
;WIDTH:0.452341
G1 X84.455 Y92.859 E.01191
;WIDTH:0.404682
G1 X85.273 Y92.844 E.02461
;WIDTH:0.416101
G1 X85.479 Y92.865 E.00643
;WIDTH:0.45805
G1 X85.684 Y92.886 E.00711
;WIDTH:0.499999
G1 X85.89 Y92.907 E.00787
G1 X87.593 Y92.907 E.06472
G1 X87.593 Y94.316 E.05355
;WIDTH:0.542075
G1 X87.572 Y94.453 E.00575
;WIDTH:0.58415
G1 X87.551 Y94.591 E.00628
;WIDTH:0.626225
G1 X87.53 Y94.728 E.00672
G1 X87.545 Y95.056 E.01593
;WIDTH:0.609518
G1 X87.583 Y95.304 E.01182
;WIDTH:0.573012
G1 X87.621 Y95.552 E.01106
;WIDTH:0.536506
G1 X87.659 Y95.8 E.0103
;WIDTH:0.499999
G1 X87.738 Y96.168 E.0143
G1 X87.9 Y96.805 E.02498
G1 X88.214 Y97.562 E.03115
G1 X88.482 Y98.017 E.02007
G1 X88.754 Y98.444 E.01924
G1 X89.317 Y99.1 E.03286
G1 X94.44 Y104.22 E.27528
G1 X95.143 Y104.809 E.03486
G1 X95.938 Y105.286 E.03524
G1 X96.797 Y105.633 E.03521
G1 X97.7 Y105.841 E.03522
G1 X98.562 Y105.907 E.03286
G1 X151.438 Y105.907 E2.00962
G1 X152.406 Y105.825 E.03692
G1 X153.305 Y105.6 E.03522
G1 X154.158 Y105.238 E.03522
G1 X154.944 Y104.746 E.03524
G1 X155.6 Y104.183 E.03286
G1 X160.72 Y99.06 E.27528
G1 X161.246 Y98.444 E.03079
G1 X161.509 Y98.03 E.01864
G1 X161.786 Y97.562 E.02067
G1 X162.133 Y96.703 E.03521
G1 X162.258 Y96.181 E.0204
;WIDTH:0.530343
G1 X162.329 Y95.812 E.01523
;WIDTH:0.560686
G1 X162.4 Y95.442 E.01622
;WIDTH:0.591874
G1 X162.434 Y95.19 E.01161
;WIDTH:0.623062
G1 X162.469 Y94.938 E.01227
G1 X162.45 Y94.738 E.00969
;WIDTH:0.586248
G1 X162.432 Y94.539 E.00903
;WIDTH:0.549433
G1 X162.413 Y94.34 E.00842
;WIDTH:0.512618
G1 X162.407 Y93.926 E.01617
;WIDTH:0.499999
G1 X162.407 Y92.907 E.03873
G1 X163.756 Y92.907 E.05127
G1 X164.106 Y92.883 E.01333
;WIDTH:0.452341
G1 X164.455 Y92.859 E.01191
;WIDTH:0.404682
G1 X165.273 Y92.844 E.02461
;WIDTH:0.416101
G1 X165.479 Y92.865 E.00643
;WIDTH:0.45805
G1 X165.684 Y92.886 E.00711
;WIDTH:0.499999
G1 X165.89 Y92.907 E.00787
G1 X167.593 Y92.907 E.06472
G1 X167.593 Y94.316 E.05355
;WIDTH:0.542074
G1 X167.572 Y94.453 E.00575
;WIDTH:0.584149
G1 X167.551 Y94.591 E.00628
;WIDTH:0.626224
G1 X167.53 Y94.728 E.00672
G1 X167.536 Y94.948 E.01067
;WIDTH:0.645052
G1 X167.52 Y95.492 E.02725
G1 X167.54 Y95.615 E.00624
;WIDTH:0.606333
G1 X167.559 Y95.737 E.00578
;WIDTH:0.567613
G1 X167.578 Y95.86 E.00543
;WIDTH:0.528893
G1 X167.593 Y96.273 E.0167
;WIDTH:0.499999
G1 X167.593 Y99.246 E.11299
G1 X167.612 Y99.532 E.01089
;WIDTH:0.461202
G1 X167.632 Y99.818 E.00997
;WIDTH:0.422405
G1 X167.651 Y100.103 E.00901
;WIDTH:0.407377
G1 X167.639 Y100.954 E.02579
;WIDTH:0.453688
G1 X167.616 Y101.245 E.00997
;WIDTH:0.499999
G1 X167.593 Y101.536 E.01109
G1 X167.593 Y104.316 E.10566
;WIDTH:0.542075
G1 X167.572 Y104.453 E.00575
;WIDTH:0.58415
G1 X167.551 Y104.591 E.00628
;WIDTH:0.626225
G1 X167.53 Y104.728 E.00672
G1 X167.536 Y104.948 E.01067
;WIDTH:0.645053
G1 X167.52 Y105.492 E.02725
G1 X167.54 Y105.615 E.00624
;WIDTH:0.606333
G1 X167.559 Y105.737 E.00578
;WIDTH:0.567612
G1 X167.578 Y105.86 E.00543
;WIDTH:0.528891
G1 X167.593 Y106.273 E.0167
;WIDTH:0.499999
G1 X167.593 Y108.221 E.07404
G1 X167.757 Y108.666 E.01802
G1 X167.931 Y108.724 E.00697
;WIDTH:0.454793
G1 X168.105 Y108.782 E.00628
;WIDTH:0.409587
G1 X168.279 Y108.839 E.00558
;WIDTH:0.36438
G1 X172.537 Y108.839 E.11381
G1 X172.537 Y109 E.0043
G1 X172.537 Y109.161 E.0043
G1 X168.279 Y109.161 E.11381
;WIDTH:0.409587
G1 X168.039 Y109.138 E.00735
;WIDTH:0.454793
G1 X167.799 Y109.116 E.00825
;WIDTH:0.499999
G1 X167.56 Y109.093 E.00913
G1 X166.657 Y109.118 E.03433
G1 X166.388 Y109.264 E.01163
G1 X166.194 Y109.55 E.01313
G1 X166.18 Y109.636 E.00331
M204 P1000
G1 X166.612 Y109.779 F12000
M204 P600
;TYPE:External perimeter
;WIDTH:0.500042
G1 F1200
G1 X166.621 Y113.224 E.13094
G1 X166.715 Y114.515 E.0492
;WIDTH:0.502544
G1 X166.759 Y115.062 E.02097
;WIDTH:0.51336
G1 X166.667 Y115.757 E.02742
;WIDTH:0.52557
G1 X166.449 Y116.212 E.02025
;WIDTH:0.569744
G1 X166.141 Y116.596 E.02156
;WIDTH:0.584023
G1 X165.831 Y116.832 E.01753
;WIDTH:0.604882
G1 X165.364 Y117.015 E.02344
G1 X165.169 Y117.046 E.00923
;WIDTH:0.605619
G1 X164.641 Y117.017 E.02474
G1 X164.171 Y116.828 E.0237
;WIDTH:0.586811
G1 X163.783 Y116.525 E.02226
;WIDTH:0.551344
G1 X163.491 Y116.114 E.02131
;WIDTH:0.52345
G1 X163.335 Y115.73 E.01656
;WIDTH:0.519648
G1 X163.249 Y115.078 E.02607
;WIDTH:0.507088
G1 X163.275 Y114.654 E.0164
;WIDTH:0.509033
G1 X163.335 Y114.089 E.02202
G1 X163.381 Y113.288 E.0311
;WIDTH:0.500042
G1 X163.388 Y109.78 E.13334
G1 X163.325 Y109.621 E.0065
G1 X163.159 Y109.55 E.00686
G1 X157.074 Y109.55 E.23129
G1 X157.074 Y107.779 E.06732
G1 X157.01 Y107.62 E.00651
G1 X156.845 Y107.55 E.00681
G1 X93.155 Y107.55 E2.42085
G1 X92.994 Y107.616 E.00661
G1 X92.926 Y107.779 E.00671
G1 X92.926 Y109.55 E.06732
G1 X86.841 Y109.55 E.23129
G1 X86.69 Y109.607 E.00613
G1 X86.612 Y109.779 E.00718
G1 X86.621 Y113.224 E.13094
G1 X86.715 Y114.515 E.0492
;WIDTH:0.502549
G1 X86.759 Y115.062 E.02097
;WIDTH:0.513278
G1 X86.667 Y115.757 E.02742
;WIDTH:0.525582
G1 X86.449 Y116.212 E.02025
;WIDTH:0.569969
G1 X86.139 Y116.597 E.02166
;WIDTH:0.582039
G1 X85.851 Y116.821 E.01636
;WIDTH:0.604699
G1 X85.364 Y117.015 E.02449
G1 X85.169 Y117.046 E.00922
;WIDTH:0.605614
G1 X84.641 Y117.017 E.02474
M73 P2 R22
G1 X84.162 Y116.824 E.02416
;WIDTH:0.587068
G1 X83.818 Y116.557 E.0197
;WIDTH:0.552105
G1 X83.487 Y116.106 E.02369
;WIDTH:0.52264
G1 X83.309 Y115.623 E.02053
;WIDTH:0.515242
G1 X83.248 Y115.078 E.02154
;WIDTH:0.507339
G1 X83.275 Y114.653 E.01645
;WIDTH:0.509033
G1 X83.335 Y114.089 E.02198
G1 X83.381 Y113.288 E.0311
;WIDTH:0.499999
G1 X83.388 Y109.78 E.13333
G1 X83.325 Y109.621 E.0065
G1 X83.159 Y109.55 E.00686
G1 X77.074 Y109.55 E.23127
G1 X77.074 Y108.45 E.04181
G1 X81.721 Y108.45 E.17662
G1 X81.895 Y108.37 E.00728
G1 X81.95 Y108.221 E.00604
G1 X81.95 Y92.45 E.5994
G1 X88.05 Y92.45 E.23184
G1 X88.05 Y94.728 E.08658
G1 X88.088 Y95.428 E.02664
G1 X88.183 Y96.062 E.02436
G1 X88.4 Y96.818 E.02989
G1 X88.652 Y97.419 E.02477
G1 X89.101 Y98.147 E.03251
G1 X89.64 Y98.777 E.03151
G1 X94.135 Y103.272 E.2416
G1 X94.737 Y103.872 E.0323
G1 X95.382 Y104.42 E.03217
G1 X96.113 Y104.864 E.03251
G1 X96.904 Y105.189 E.0325
G1 X97.736 Y105.386 E.0325
G1 X98.562 Y105.45 E.03149
G1 X151.438 Y105.45 E2.00962
G1 X152.299 Y105.38 E.03283
G1 X153.13 Y105.178 E.0325
G1 X153.919 Y104.848 E.0325
G1 X154.647 Y104.399 E.03251
G1 X155.277 Y103.86 E.03151
G1 X159.843 Y99.294 E.24542
G1 X160.578 Y98.522 E.04051
G1 X160.92 Y98.118 E.02012
G1 X161.348 Y97.419 E.03115
G1 X161.546 Y96.949 E.01938
G1 X161.717 Y96.476 E.01912
G1 X161.886 Y95.764 E.02781
G1 X161.95 Y94.938 E.03149
G1 X161.95 Y92.45 E.09456
G1 X168.05 Y92.45 E.23184
G1 X168.05 Y108.221 E.5994
G1 X168.105 Y108.37 E.00604
G1 X168.279 Y108.45 E.00728
G1 X172.926 Y108.45 E.17662
G1 X172.926 Y109 E.0209
;WIDTH:0.500042
G1 X172.926 Y109.55 E.02091
G1 X166.841 Y109.55 E.23129
G1 X166.69 Y109.607 E.00613
G1 X166.637 Y109.724 E.00488
M204 P1000
G1 X166.226 Y109.883 F12000
G1 E-.64 F2100
;WIPE_START
G1 F9600
G1 X166.633 Y110.494 E-.16
;WIPE_END
G1 Z.4 F720
G1 X165.011 Y103.158 F12000
G1 Z.2 F720
G1 E.8 F1500
M204 P600
;TYPE:Perimeter
;WIDTH:0.417101
G1 F1200
G1 X165.053 Y103.156 E.00131
;WIDTH:0.415269
G1 X165.249 Y103.166 E.00608
;WIDTH:0.454885
G1 X165.445 Y103.176 E.00672
;WIDTH:0.499999
G1 X165.825 Y103.287 E.01505
G1 X166.108 Y103.465 E.01271
G1 X166.501 Y103.833 E.02046
G1 X166.718 Y104.185 E.01572
;WIDTH:0.542075
G1 X166.796 Y104.386 E.00895
;WIDTH:0.58415
G1 X166.875 Y104.588 E.00976
;WIDTH:0.626225
G1 X166.953 Y104.79 E.0105
;WIDTH:0.645053
G1 X166.921 Y105.454 E.03328
G1 X166.812 Y105.648 E.01114
;WIDTH:0.596702
G1 X166.704 Y105.842 E.01022
;WIDTH:0.548351
G1 X166.595 Y106.035 E.00932
;WIDTH:0.499999
G1 X166.457 Y106.222 E.00883
G1 X166.159 Y106.508 E.0157
G1 X165.786 Y106.719 E.01629
G1 X165.366 Y106.866 E.01691
G1 X164.831 Y106.9 E.02037
G1 X164.324 Y106.777 E.01983
G1 X163.935 Y106.561 E.01691
G1 X163.603 Y106.29 E.01629
G1 X163.357 Y105.958 E.0157
G1 X163.253 Y105.751 E.0088
G1 X163.105 Y105.219 E.02099
G1 X163.12 Y104.713 E.01924
G1 X163.245 Y104.297 E.01651
G1 X163.445 Y103.906 E.01669
G1 X163.883 Y103.459 E.02379
G1 X164.259 Y103.249 E.01637
G1 X164.477 Y103.172 E.00879
G1 X164.669 Y103.167 E.0073
;WIDTH:0.45855
G1 X164.861 Y103.162 E.00664
;WIDTH:0.417101
G1 X164.951 Y103.159 E.0028
M204 P1000
G1 E-.64 F2100
;WIPE_START
G1 F9600
G1 X165.053 Y103.156 E-.02121
G1 X165.249 Y103.166 E-.04078
G1 X165.445 Y103.176 E-.04078
G1 X165.709 Y103.253 E-.05723
;WIPE_END
G1 Z.4 F720
G1 X164.293 Y98.214 F12000
G1 Z.2 F720
G1 E.8 F1500
M204 P600
;WIDTH:0.499999
G1 F1200
G1 X164.884 Y98.102 E.02286
G1 X165.312 Y98.135 E.01631
G1 X165.728 Y98.208 E.01605
G1 X166.416 Y98.561 E.02939
G1 X166.597 Y98.707 E.00884
G1 X166.981 Y99.144 E.02211
G1 X167.103 Y99.341 E.00881
G1 X167.303 Y99.888 E.02214
;WIDTH:0.464051
G1 X167.316 Y100.29 E.01408
;WIDTH:0.417676
G1 X167.329 Y100.692 E.01253
;WIDTH:0.407377
G1 X167.32 Y100.906 E.00649
;WIDTH:0.453688
G1 X167.257 Y101.191 E.00997
;WIDTH:0.499999
G1 X167.193 Y101.476 E.0111
G1 X167.089 Y101.683 E.0088
G1 X166.743 Y102.151 E.02212
G1 X166.363 Y102.482 E.01915
G1 X165.803 Y102.753 E.02364
G1 X165.637 Y102.79 E.00646
;WIDTH:0.474867
G1 X165.471 Y102.827 E.00611
;WIDTH:0.449735
G1 X165.195 Y102.83 E.00934
;WIDTH:0.409855
G1 X164.92 Y102.833 E.00839
;WIDTH:0.413316
G1 X164.777 Y102.832 E.0044
;WIDTH:0.456658
G1 X164.634 Y102.831 E.00492
;WIDTH:0.499999
G1 X164.492 Y102.83 E.0054
G1 X163.922 Y102.647 E.02275
G1 X163.424 Y102.311 E.02283
G1 X163.257 Y102.151 E.00879
G1 X162.911 Y101.682 E.02215
G1 X162.806 Y101.475 E.00882
G1 X162.636 Y100.919 E.0221
G1 X162.607 Y100.69 E.00877
G1 X162.631 Y100.108 E.02214
G1 X162.68 Y99.882 E.00879
G1 X162.897 Y99.341 E.02215
G1 X163.019 Y99.144 E.00881
G1 X163.403 Y98.707 E.02211
G1 X163.705 Y98.494 E.01405
G1 X164.181 Y98.236 E.02058
G1 X164.234 Y98.226 E.00205
M204 P1000
G1 X164.32 Y98.68 F12000
M204 P600
;TYPE:External perimeter
G1 F1200
G1 X164.388 Y98.651 E.00281
G1 X164.961 Y98.552 E.0221
G1 X165.612 Y98.651 E.02503
G1 X166.193 Y98.961 E.02503
G1 X166.638 Y99.446 E.02502
G1 X166.896 Y100.052 E.02503
G1 X166.937 Y100.709 E.02502
G1 X166.756 Y101.342 E.02502
G1 X166.375 Y101.879 E.02502
G1 X166.038 Y102.146 E.01634
G1 X165.527 Y102.375 E.02128
G1 X165.019 Y102.431 E.01942
G1 X164.796 Y102.437 E.00848
G1 X164.233 Y102.291 E.02211
G1 X163.68 Y101.933 E.02504
G1 X163.278 Y101.411 E.02504
G1 X163.073 Y100.786 E.025
G1 X163.063 Y100.709 E.00295
G1 X163.088 Y100.127 E.02214
G1 X163.288 Y99.594 E.02164
G1 X163.362 Y99.446 E.00629
G1 X163.746 Y99.009 E.02211
G1 X164.265 Y98.705 E.02286
M204 P1000
G1 X164.322 Y98.606 F12000
G1 E-.64 F2100
;WIPE_START
G1 F9600
G1 X164.388 Y98.651 E-.02792
